( pcb2gcode 3.0.3 )
( Software-independent Gcode )

G94 ( Inches per minute feed rate. )
G20 ( Units == INCHES. )

G90 ( Absolute coordinates. )
G00 S10000 ( RPM spindle speed. )
G64 P0.00040 ( set maximum deviation from commanded toolpath )
G01 F4.72441 ( Feedrate. )


G00 Z0.19685 (Retract to tool change height)
T1
M5      (Spindle stop.)
G04 P1.00000 (Wait for spindle to stop)
(MSG, Change tool bit to mill diameter 0.00000in)
M6      (Tool change.)
M0      (Temporary machine stop.)
M3 ( Spindle on clockwise. )
G04 P1.00000 (Wait for spindle to get up to speed)
G04 P0 ( dwell for no time -- G64 should not smooth over this point )
G00 Z0.19685 ( retract )

G00 X0.38583 Y0.62558 ( rapid move to begin. )
G01 F2.36220
( Mill infeed pass 1/1 )
G01 Z-0.02362
G04 P0 ( dwell for no time -- G64 should not smooth over this point )
G01 F4.72441
G01 X0.38583 Y0.62558
G01 X0.38603 Y0.62998
G01 X0.38664 Y0.63393
G01 X0.38764 Y0.63781
G01 X0.38920 Y0.64192
G01 X0.39100 Y0.64550
G01 X0.39316 Y0.64887
G01 X0.39673 Y0.65318
G01 X0.40087 Y0.65694
G01 X0.40551 Y0.66008
G01 X0.40799 Y0.66139
G01 X0.41092 Y0.66267
G01 X0.41627 Y0.66433
G01 X0.41941 Y0.66493
G01 X0.42220 Y0.66524
G01 X0.42500 Y0.66535
G01 X0.42819 Y0.66524
G01 X0.43373 Y0.66442
G01 X0.43645 Y0.66371
G01 X0.43947 Y0.66267
G01 X0.44453 Y0.66028
G01 X0.44920 Y0.65719
G01 X0.45136 Y0.65540
G01 X0.45366 Y0.65318
G01 X0.45553 Y0.65109
G01 X0.45747 Y0.64854
G01 X0.46034 Y0.64373
G01 X0.46250 Y0.63857
G01 X0.46330 Y0.63588
G01 X0.46398 Y0.63275
G01 X0.46436 Y0.62998
G01 X0.46456 Y0.62678
G01 X0.46452 Y0.62398
G01 X0.46422 Y0.62079
G01 X0.46367 Y0.61764
G01 X0.46298 Y0.61493
G01 X0.46196 Y0.61189
G01 X0.46086 Y0.60932
G01 X0.45959 Y0.60682
G01 X0.45792 Y0.60409
G01 X0.45603 Y0.60150
G01 X0.45421 Y0.59937
G01 X0.45225 Y0.59738
G01 X0.44983 Y0.59527
G01 X0.44726 Y0.59337
G01 X0.44488 Y0.59189
G01 X0.44488 Y0.34646
G01 X0.85433 Y0.34646
G01 X0.85443 Y0.34845
G01 X0.85474 Y0.35043
G01 X0.85530 Y0.35256
G01 X0.85602 Y0.35443
G01 X0.85692 Y0.35621
G01 X0.85811 Y0.35806
G01 X0.85937 Y0.35961
G01 X0.86093 Y0.36117
G01 X0.86249 Y0.36242
G01 X0.86417 Y0.36350
G01 X0.86595 Y0.36441
G01 X0.86801 Y0.36520
G01 X0.86994 Y0.36572
G01 X0.87212 Y0.36605
G01 X0.87411 Y0.36614
G01 X0.87631 Y0.36601
G01 X0.87926 Y0.36543
G01 X0.88208 Y0.36441
G01 X0.88471 Y0.36298
G01 X0.88725 Y0.36103
G01 X0.88931 Y0.35885
G01 X0.89111 Y0.35621
G01 X0.89247 Y0.35331
G01 X0.89329 Y0.35043
G01 X0.89370 Y0.34666
G01 X0.89367 Y0.30609
G01 X0.89337 Y0.30350
G01 X0.89273 Y0.30098
G01 X0.89176 Y0.29857
G01 X0.89038 Y0.29614
G01 X0.88839 Y0.29363
G01 X0.88618 Y0.29161
G01 X0.88351 Y0.28984
G01 X0.88078 Y0.28860
G01 X0.87770 Y0.28775
G01 X0.87452 Y0.28741
G01 X0.87152 Y0.28756
G01 X0.86839 Y0.28822
G01 X0.86559 Y0.28930
G01 X0.86282 Y0.29089
G01 X0.86035 Y0.29292
G01 X0.85823 Y0.29532
G01 X0.85663 Y0.29786
G01 X0.85536 Y0.30079
G01 X0.85459 Y0.30390
G01 X0.85433 Y0.30708
G01 X0.42520 Y0.30708
G01 X0.42243 Y0.30728
G01 X0.41934 Y0.30798
G01 X0.41640 Y0.30916
G01 X0.41369 Y0.31080
G01 X0.41214 Y0.31204
G01 X0.41046 Y0.31372
G01 X0.40899 Y0.31559
G01 X0.40776 Y0.31762
G01 X0.40679 Y0.31979
G01 X0.40608 Y0.32206
G01 X0.40565 Y0.32440
G01 X0.40551 Y0.32637
G01 X0.40551 Y0.59189
G01 X0.40183 Y0.59430
G01 X0.39873 Y0.59683
G01 X0.39591 Y0.59967
G01 X0.39339 Y0.60278
G01 X0.39120 Y0.60613
G01 X0.38936 Y0.60968
G01 X0.38789 Y0.61340
G01 X0.38672 Y0.61764
G01 X0.38607 Y0.62159
G01 X0.38583 Y0.62558
G04 P0 ( dwell for no time -- G64 should not smooth over this point )
G00 Z0.19685 ( retract )

G00 X0.38583 Y1.12638 ( rapid move to begin. )
G01 F2.36220
( Mill infeed pass 1/1 )
G01 Z-0.02362
G04 P0 ( dwell for no time -- G64 should not smooth over this point )
G01 F4.72441
G01 X0.38583 Y1.12638
G01 X0.38612 Y1.12119
G01 X0.38699 Y1.11647
G01 X0.38843 Y1.11189
G01 X0.39061 Y1.10717
G01 X0.39316 Y1.10310
G01 X0.39618 Y1.09937
G01 X0.39994 Y1.09578
G01 X0.40380 Y1.09293
G01 X0.40835 Y1.09040
G01 X0.41280 Y1.08862
G01 X0.41744 Y1.08739
G01 X0.42260 Y1.08670
G01 X0.42780 Y1.08670
G01 X0.43256 Y1.08731
G01 X0.43759 Y1.08862
G01 X0.44205 Y1.09040
G01 X0.44659 Y1.09293
G01 X0.45045 Y1.09578
G01 X0.45421 Y1.09937
G01 X0.45724 Y1.10310
G01 X0.45997 Y1.10752
G01 X0.46196 Y1.11189
G01 X0.46340 Y1.11647
G01 X0.46427 Y1.12119
G01 X0.46452 Y1.12398
G01 X0.46455 Y1.12718
G01 X0.46398 Y1.13275
G01 X0.46340 Y1.13549
G01 X0.46250 Y1.13857
G01 X0.46034 Y1.14373
G01 X0.45747 Y1.14854
G01 X0.45553 Y1.15108
G01 X0.45366 Y1.15318
G01 X0.44952 Y1.15694
G01 X0.44488 Y1.16008
G01 X0.44488 Y1.42913
G01 X0.64981 Y1.42913
G01 X0.65299 Y1.42943
G01 X0.65609 Y1.43023
G01 X0.65794 Y1.43098
G01 X0.65971 Y1.43192
G01 X0.66261 Y1.43404
G01 X0.66431 Y1.43573
G01 X0.66580 Y1.43762
G01 X0.66704 Y1.43968
G01 X0.66788 Y1.44151
G01 X0.67100 Y1.44333
G01 X0.67424 Y1.44567
G01 X0.67723 Y1.44833
G01 X0.67968 Y1.45097
G01 X0.68233 Y1.45448
G01 X0.68475 Y1.45863
G01 X0.68665 Y1.46304
G01 X0.68800 Y1.46765
G01 X0.68885 Y1.47318
G01 X0.68890 Y1.47878
G01 X0.68817 Y1.48433
G01 X0.68665 Y1.48972
G01 X0.68438 Y1.49484
G01 X0.68141 Y1.49958
G01 X0.67780 Y1.50386
G01 X0.67361 Y1.50758
G01 X0.67100 Y1.50943
G01 X0.66859 Y1.51087
G01 X0.66573 Y1.51229
G01 X0.66313 Y1.51335
G01 X0.66009 Y1.51433
G01 X0.65736 Y1.51498
G01 X0.65460 Y1.51543
G01 X0.65141 Y1.51571
G01 X0.64821 Y1.51572
G01 X0.64541 Y1.51552
G01 X0.64264 Y1.51513
G01 X0.63951 Y1.51443
G01 X0.63645 Y1.51349
G01 X0.63385 Y1.51246
G01 X0.62889 Y1.50986
G01 X0.62656 Y1.50830
G01 X0.62404 Y1.50632
G01 X0.62170 Y1.50415
G01 X0.61979 Y1.50209
G01 X0.61780 Y1.49958
G01 X0.61623 Y1.49726
G01 X0.61465 Y1.49448
G01 X0.61345 Y1.49195
G01 X0.61230 Y1.48896
G01 X0.61150 Y1.48628
G01 X0.61082 Y1.48315
G01 X0.61044 Y1.48037
G01 X0.61024 Y1.47718
G01 X0.61029 Y1.47438
G01 X0.61053 Y1.47159
G01 X0.61103 Y1.46850
G01 X0.42440 Y1.46849
G01 X0.42204 Y1.46825
G01 X0.41972 Y1.46772
G01 X0.41748 Y1.46693
G01 X0.41535 Y1.46586
G01 X0.41369 Y1.46479
G01 X0.41185 Y1.46329
G01 X0.41020 Y1.46157
G01 X0.40877 Y1.45967
G01 X0.40741 Y1.45726
G01 X0.40640 Y1.45467
G01 X0.40576 Y1.45198
G01 X0.40551 Y1.44921
G01 X0.40551 Y1.16008
G01 X0.40119 Y1.15719
G01 X0.39729 Y1.15375
G01 X0.39411 Y1.15015
G01 X0.39120 Y1.14584
G01 X0.38888 Y1.14119
G01 X0.38730 Y1.13666
G01 X0.38622 Y1.13157
G01 X0.38583 Y1.12638
G04 P0 ( dwell for no time -- G64 should not smooth over this point )
G00 Z0.19685 ( retract )

G00 X0.61024 Y1.17323 ( rapid move to begin. )
G01 F2.36220
( Mill infeed pass 1/1 )
G01 Z-0.02362
G04 P0 ( dwell for no time -- G64 should not smooth over this point )
G01 F4.72441
G01 X0.61024 Y1.17323
G01 X0.61040 Y1.17683
G01 X0.61097 Y1.18079
G01 X0.61194 Y1.18467
G01 X0.61329 Y1.18843
G01 X0.61483 Y1.19169
G01 X0.61689 Y1.19512
G01 X0.61902 Y1.19802
G01 X0.62170 Y1.20100
G01 X0.62435 Y1.20343
G01 X0.62755 Y1.20584
G01 X0.63062 Y1.20772
G01 X0.63422 Y1.20947
G01 X0.63759 Y1.21072
G01 X0.64146 Y1.21175
G01 X0.64541 Y1.21237
G01 X0.64941 Y1.21260
G01 X0.65300 Y1.21245
G01 X0.65697 Y1.21190
G01 X0.66047 Y1.21107
G01 X0.66426 Y1.20977
G01 X0.66753 Y1.20828
G01 X0.67100 Y1.20628
G01 X0.67424 Y1.20394
G01 X0.67723 Y1.20128
G01 X0.67968 Y1.19864
G01 X0.68210 Y1.19545
G01 X0.68419 Y1.19204
G01 X0.68592 Y1.18843
G01 X0.68728 Y1.18467
G01 X0.68824 Y1.18079
G01 X0.68877 Y1.17722
G01 X0.68898 Y1.17323
G01 X0.68881 Y1.16963
G01 X0.68824 Y1.16567
G01 X0.68728 Y1.16179
G01 X0.68592 Y1.15802
G01 X0.68438 Y1.15477
G01 X0.68233 Y1.15133
G01 X0.68019 Y1.14844
G01 X0.67751 Y1.14546
G01 X0.67486 Y1.14303
G01 X0.67166 Y1.14062
G01 X0.66859 Y1.13874
G01 X0.66500 Y1.13699
G01 X0.66162 Y1.13574
G01 X0.65775 Y1.13471
G01 X0.65380 Y1.13408
G01 X0.64981 Y1.13386
G01 X0.64621 Y1.13400
G01 X0.64224 Y1.13455
G01 X0.63874 Y1.13539
G01 X0.63496 Y1.13668
G01 X0.63168 Y1.13818
G01 X0.62821 Y1.14018
G01 X0.62497 Y1.14252
G01 X0.62198 Y1.14518
G01 X0.61953 Y1.14782
G01 X0.61711 Y1.15100
G01 X0.61502 Y1.15442
G01 X0.61329 Y1.15802
G01 X0.61194 Y1.16179
G01 X0.61097 Y1.16567
G01 X0.61044 Y1.16923
G01 X0.61024 Y1.17323
G04 P0 ( dwell for no time -- G64 should not smooth over this point )
G00 Z0.19685 ( retract )

G00 X0.62992 Y1.17343 ( rapid move to begin. )
G01 F2.36220
( Mill infeed pass 1/1 )
G01 Z-0.02362
G04 P0 ( dwell for no time -- G64 should not smooth over this point )
G01 F4.72441
G01 X0.62992 Y1.17343
G01 X0.63004 Y1.17542
G01 X0.63037 Y1.17740
G01 X0.63089 Y1.17933
G01 X0.63161 Y1.18120
G01 X0.63251 Y1.18298
G01 X0.63359 Y1.18467
G01 X0.63594 Y1.18739
G01 X0.63744 Y1.18871
G01 X0.63908 Y1.18986
G01 X0.64082 Y1.19084
G01 X0.64265 Y1.19165
G01 X0.64456 Y1.19226
G01 X0.64652 Y1.19267
G01 X0.65011 Y1.19291
G01 X0.65210 Y1.19275
G01 X0.65407 Y1.19240
G01 X0.65748 Y1.19127
G01 X0.65927 Y1.19037
G01 X0.66097 Y1.18931
G01 X0.66370 Y1.18697
G01 X0.66502 Y1.18547
G01 X0.66619 Y1.18384
G01 X0.66718 Y1.18210
G01 X0.66799 Y1.18027
G01 X0.66896 Y1.17681
G01 X0.66923 Y1.17483
G01 X0.66929 Y1.17283
G01 X0.66888 Y1.16925
G01 X0.66838 Y1.16732
G01 X0.66768 Y1.16544
G01 X0.66680 Y1.16365
G01 X0.66574 Y1.16195
G01 X0.66451 Y1.16037
G01 X0.66313 Y1.15892
G01 X0.66161 Y1.15763
G01 X0.65996 Y1.15649
G01 X0.65674 Y1.15488
G01 X0.65485 Y1.15425
G01 X0.65289 Y1.15382
G01 X0.64931 Y1.15355
G01 X0.64731 Y1.15368
G01 X0.64534 Y1.15401
G01 X0.64191 Y1.15511
G01 X0.64011 Y1.15598
G01 X0.63841 Y1.15704
G01 X0.63565 Y1.15934
G01 X0.63431 Y1.16083
G01 X0.63314 Y1.16245
G01 X0.63213 Y1.16417
G01 X0.63130 Y1.16600
G01 X0.63066 Y1.16789
G01 X0.63021 Y1.16984
G01 X0.62992 Y1.17343
G04 P0 ( dwell for no time -- G64 should not smooth over this point )
G00 Z0.19685 ( retract )

G00 X0.62992 Y1.47658 ( rapid move to begin. )
G01 F2.36220
( Mill infeed pass 1/1 )
G01 Z-0.02362
G04 P0 ( dwell for no time -- G64 should not smooth over this point )
G01 F4.72441
G01 X0.62992 Y1.47658
G01 X0.63000 Y1.47458
G01 X0.63029 Y1.47260
G01 X0.63077 Y1.47066
G01 X0.63157 Y1.46850
G01 X0.65001 Y1.46850
G01 X0.65319 Y1.46817
G01 X0.65590 Y1.46747
G01 X0.65883 Y1.46620
G01 X0.66153 Y1.46448
G01 X0.66366 Y1.46260
G01 X0.66551 Y1.46477
G01 X0.66699 Y1.46715
G01 X0.66826 Y1.47009
G01 X0.66896 Y1.47280
G01 X0.66927 Y1.47558
G01 X0.66919 Y1.47837
G01 X0.66871 Y1.48113
G01 X0.66768 Y1.48416
G01 X0.66597 Y1.48732
G01 X0.66477 Y1.48893
G01 X0.66342 Y1.49040
G01 X0.66192 Y1.49173
G01 X0.66030 Y1.49290
G01 X0.65857 Y1.49390
G01 X0.65674 Y1.49472
G01 X0.65485 Y1.49535
G01 X0.65289 Y1.49579
G01 X0.64931 Y1.49606
G01 X0.64573 Y1.49568
G01 X0.64379 Y1.49518
G01 X0.64191 Y1.49450
G01 X0.63874 Y1.49279
G01 X0.63713 Y1.49161
G01 X0.63565 Y1.49026
G01 X0.63336 Y1.48749
G01 X0.63231 Y1.48578
G01 X0.63145 Y1.48398
G01 X0.63077 Y1.48210
G01 X0.63029 Y1.48016
G01 X0.62992 Y1.47658
G04 P0 ( dwell for no time -- G64 should not smooth over this point )
G00 Z0.19685 ( retract )

G00 X1.03150 Y1.47658 ( rapid move to begin. )
G01 F2.36220
( Mill infeed pass 1/1 )
G01 Z-0.02362
G04 P0 ( dwell for no time -- G64 should not smooth over this point )
G01 F4.72441
G01 X1.03150 Y1.47658
G01 X1.03162 Y1.47857
G01 X1.03194 Y1.48055
G01 X1.03246 Y1.48248
G01 X1.03318 Y1.48435
G01 X1.03408 Y1.48613
G01 X1.03516 Y1.48782
G01 X1.03751 Y1.49054
G01 X1.04032 Y1.49279
G01 X1.04204 Y1.49381
G01 X1.04385 Y1.49465
G01 X1.04575 Y1.49530
G01 X1.04770 Y1.49575
G01 X1.04968 Y1.49601
G01 X1.05168 Y1.49606
G01 X1.05368 Y1.49590
G01 X1.05564 Y1.49555
G01 X1.05757 Y1.49500
G01 X1.05942 Y1.49425
G01 X1.06120 Y1.49332
G01 X1.06286 Y1.49222
G01 X1.06555 Y1.48983
G01 X1.06684 Y1.48830
G01 X1.06797 Y1.48665
G01 X1.06956 Y1.48342
G01 X1.07018 Y1.48152
G01 X1.07061 Y1.47957
G01 X1.07086 Y1.47598
G01 X1.07072 Y1.47398
G01 X1.07038 Y1.47201
G01 X1.06983 Y1.47009
G01 X1.06910 Y1.46822
G01 X1.06818 Y1.46645
G01 X1.06708 Y1.46477
G01 X1.06471 Y1.46207
G01 X1.06188 Y1.45985
G01 X1.06014 Y1.45885
G01 X1.05832 Y1.45803
G01 X1.05642 Y1.45740
G01 X1.05447 Y1.45697
G01 X1.05088 Y1.45670
G01 X1.04888 Y1.45683
G01 X1.04691 Y1.45716
G01 X1.04348 Y1.45826
G01 X1.04032 Y1.45996
G01 X1.03871 Y1.46115
G01 X1.03723 Y1.46249
G01 X1.03589 Y1.46398
G01 X1.03471 Y1.46560
G01 X1.03370 Y1.46732
G01 X1.03287 Y1.46915
G01 X1.03186 Y1.47260
G01 X1.03158 Y1.47458
G01 X1.03150 Y1.47658
G04 P0 ( dwell for no time -- G64 should not smooth over this point )
G00 Z0.19685 ( retract )

G00 X1.01181 Y1.47638 ( rapid move to begin. )
G01 F2.36220
( Mill infeed pass 1/1 )
G01 Z-0.02362
G04 P0 ( dwell for no time -- G64 should not smooth over this point )
G01 F4.72441
G01 X1.01181 Y1.47638
G01 X1.01201 Y1.47238
G01 X1.01262 Y1.46843
G01 X1.01363 Y1.46456
G01 X1.01486 Y1.46117
G01 X1.01660 Y1.45756
G01 X1.01868 Y1.45415
G01 X1.02111 Y1.45097
G01 X1.02355 Y1.44833
G01 X1.02654 Y1.44567
G01 X1.02979 Y1.44333
G01 X1.03325 Y1.44133
G01 X1.03653 Y1.43983
G01 X1.04032 Y1.43854
G01 X1.04382 Y1.43770
G01 X1.04778 Y1.43715
G01 X1.05138 Y1.43701
G01 X1.05538 Y1.43723
G01 X1.05933 Y1.43786
G01 X1.06319 Y1.43888
G01 X1.06657 Y1.44014
G01 X1.06982 Y1.44170
G01 X1.07324 Y1.44377
G01 X1.07644 Y1.44617
G01 X1.07909 Y1.44861
G01 X1.08176 Y1.45159
G01 X1.08412 Y1.45482
G01 X1.08596 Y1.45792
G01 X1.08765 Y1.46154
G01 X1.08897 Y1.46532
G01 X1.08982 Y1.46882
G01 X1.09039 Y1.47278
G01 X1.09055 Y1.47638
G01 X1.09035 Y1.48037
G01 X1.08974 Y1.48433
G01 X1.08873 Y1.48820
G01 X1.08750 Y1.49158
G01 X1.08577 Y1.49519
G01 X1.08368 Y1.49860
G01 X1.08125 Y1.50179
G01 X1.07881 Y1.50443
G01 X1.07582 Y1.50709
G01 X1.07257 Y1.50943
G01 X1.06911 Y1.51143
G01 X1.06583 Y1.51292
G01 X1.06204 Y1.51422
G01 X1.05854 Y1.51505
G01 X1.05458 Y1.51560
G01 X1.05098 Y1.51575
G01 X1.04699 Y1.51552
G01 X1.04303 Y1.51490
G01 X1.03955 Y1.51399
G01 X1.03579 Y1.51262
G01 X1.03255 Y1.51106
G01 X1.02912 Y1.50899
G01 X1.02592 Y1.50658
G01 X1.02327 Y1.50415
G01 X1.02060 Y1.50117
G01 X1.01824 Y1.49794
G01 X1.01622 Y1.49448
G01 X1.01471 Y1.49121
G01 X1.01340 Y1.48743
G01 X1.01254 Y1.48394
G01 X1.01198 Y1.47998
G01 X1.01181 Y1.47638
G01 X1.01186 Y1.17123
G01 X1.01188 Y1.17563
G01 X1.01247 Y1.18039
G01 X1.01363 Y1.18505
G01 X1.01535 Y1.18953
G01 X1.01802 Y1.19445
G01 X1.02137 Y1.19894
G01 X1.02531 Y1.20291
G01 X1.02979 Y1.20628
G01 X1.03469 Y1.20898
G01 X1.03993 Y1.21096
G01 X1.04540 Y1.21217
G01 X1.05098 Y1.21260
G01 X1.05617 Y1.21228
G01 X1.06127 Y1.21128
G01 X1.06620 Y1.20962
G01 X1.07087 Y1.20732
G01 X1.07519 Y1.20443
G01 X1.07909 Y1.20100
G01 X1.08251 Y1.19708
G01 X1.08528 Y1.19291
G01 X1.42520 Y1.19291
G01 X1.42757 Y1.19277
G01 X1.42991 Y1.19234
G01 X1.43218 Y1.19163
G01 X1.43434 Y1.19066
G01 X1.43638 Y1.18943
G01 X1.43825 Y1.18796
G01 X1.43993 Y1.18628
G01 X1.44162 Y1.18408
G01 X1.44281 Y1.18202
G01 X1.44387 Y1.17946
G01 X1.44448 Y1.17717
G01 X1.44484 Y1.17442
G01 X1.44488 Y1.01047
G01 X1.44792 Y1.00853
G01 X1.45076 Y1.00632
G01 X1.45339 Y1.00386
G01 X1.45603 Y1.00086
G01 X1.45814 Y0.99794
G01 X1.46016 Y0.99448
G01 X1.46166 Y0.99121
G01 X1.46298 Y0.98743
G01 X1.46383 Y0.98394
G01 X1.46436 Y0.98037
G01 X1.46456 Y0.97678
G01 X1.46440 Y0.97278
G01 X1.46391 Y0.96921
G01 X1.46298 Y0.96532
G01 X1.46181 Y0.96191
G01 X1.46016 Y0.95827
G01 X1.45724 Y0.95350
G01 X1.45553 Y0.95128
G01 X1.45339 Y0.94890
G01 X1.44920 Y0.94517
G01 X1.44659 Y0.94333
G01 X1.44418 Y0.94189
G01 X1.43910 Y0.93954
G01 X1.43644 Y0.93865
G01 X1.43334 Y0.93786
G01 X1.43019 Y0.93732
G01 X1.42740 Y0.93707
G01 X1.42420 Y0.93702
G01 X1.42140 Y0.93719
G01 X1.41862 Y0.93756
G01 X1.41549 Y0.93822
G01 X1.41018 Y0.93998
G01 X1.40763 Y0.94115
G01 X1.40482 Y0.94269
G01 X1.40248 Y0.94422
G01 X1.39994 Y0.94617
G01 X1.39786 Y0.94805
G01 X1.39565 Y0.95036
G01 X1.39387 Y0.95253
G01 X1.39204 Y0.95515
G01 X1.38936 Y0.96007
G01 X1.38829 Y0.96266
G01 X1.38730 Y0.96571
G01 X1.38656 Y0.96882
G01 X1.38603 Y0.97238
G01 X1.38583 Y0.97558
G01 X1.38590 Y0.97878
G01 X1.38622 Y0.98196
G01 X1.38681 Y0.98511
G01 X1.38764 Y0.98820
G01 X1.38873 Y0.99121
G01 X1.39005 Y0.99413
G01 X1.39161 Y0.99692
G01 X1.39339 Y0.99958
G01 X1.39538 Y1.00209
G01 X1.39757 Y1.00443
G01 X1.39994 Y1.00658
G01 X1.40248 Y1.00853
G01 X1.40551 Y1.01047
G01 X1.40551 Y1.15354
G01 X1.08527 Y1.15354
G01 X1.08368 Y1.15100
G01 X1.08201 Y1.14875
G01 X1.07823 Y1.14462
G01 X1.07390 Y1.14107
G01 X1.06911 Y1.13818
G01 X1.06395 Y1.13599
G01 X1.05854 Y1.13455
G01 X1.05298 Y1.13390
G01 X1.04738 Y1.13404
G01 X1.04303 Y1.13471
G01 X1.03841 Y1.13599
G01 X1.03397 Y1.13782
G01 X1.02979 Y1.14018
G01 X1.02592 Y1.14303
G01 X1.02271 Y1.14603
G01 X1.01961 Y1.14970
G01 X1.01699 Y1.15372
G01 X1.01502 Y1.15766
G01 X1.01340 Y1.16217
G01 X1.01240 Y1.16646
G01 X1.01186 Y1.17123
G04 P0 ( dwell for no time -- G64 should not smooth over this point )
G00 Z0.19685 ( retract )

G00 X1.03150 Y1.17263 ( rapid move to begin. )
G01 F2.36220
( Mill infeed pass 1/1 )
G01 Z-0.02362
G04 P0 ( dwell for no time -- G64 should not smooth over this point )
G01 F4.72441
G01 X1.03150 Y1.17263
G01 X1.03154 Y1.17463
G01 X1.03213 Y1.17818
G01 X1.03273 Y1.18009
G01 X1.03352 Y1.18192
G01 X1.03540 Y1.18499
G01 X1.03667 Y1.18653
G01 X1.03810 Y1.18794
G01 X1.03966 Y1.18919
G01 X1.04134 Y1.19028
G01 X1.04461 Y1.19178
G01 X1.04652 Y1.19235
G01 X1.04849 Y1.19273
G01 X1.05208 Y1.19289
G01 X1.05407 Y1.19270
G01 X1.05603 Y1.19230
G01 X1.05794 Y1.19171
G01 X1.05979 Y1.19093
G01 X1.06299 Y1.18897
G01 X1.06092 Y1.18718
G01 X1.05932 Y1.18539
G01 X1.05817 Y1.18375
G01 X1.05701 Y1.18165
G01 X1.05612 Y1.17942
G01 X1.05559 Y1.17750
G01 X1.05521 Y1.17513
G01 X1.05512 Y1.17313
G01 X1.05528 Y1.17073
G01 X1.05573 Y1.16837
G01 X1.05632 Y1.16646
G01 X1.05728 Y1.16426
G01 X1.05850 Y1.16220
G01 X1.05970 Y1.16060
G01 X1.06135 Y1.15886
G01 X1.06299 Y1.15748
G01 X1.06050 Y1.15589
G01 X1.05757 Y1.15461
G01 X1.05447 Y1.15382
G01 X1.05128 Y1.15354
G01 X1.04809 Y1.15379
G01 X1.04498 Y1.15454
G01 X1.04204 Y1.15579
G01 X1.03934 Y1.15751
G01 X1.03667 Y1.15992
G01 X1.03540 Y1.16146
G01 X1.03428 Y1.16313
G01 X1.03335 Y1.16489
G01 X1.03259 Y1.16675
G01 X1.03203 Y1.16867
G01 X1.03167 Y1.17063
G01 X1.03150 Y1.17263
G04 P0 ( dwell for no time -- G64 should not smooth over this point )
G00 Z0.19685 ( retract )

G00 X1.44488 Y0.97646 ( rapid move to begin. )
G01 F2.36220
( Mill infeed pass 1/1 )
G01 Z-0.02362
G04 P0 ( dwell for no time -- G64 should not smooth over this point )
G01 F4.72441
G01 X1.44488 Y0.97646
G01 X1.44455 Y0.97279
G01 X1.44358 Y0.96933
G01 X1.44199 Y0.96610
G01 X1.43984 Y0.96322
G04 P0 ( dwell for no time -- G64 should not smooth over this point )
G00 Z0.19685 ( retract )

G00 X0.95669 Y0.34646 ( rapid move to begin. )
G01 F2.36220
( Mill infeed pass 1/1 )
G01 Z-0.02362
G04 P0 ( dwell for no time -- G64 should not smooth over this point )
G01 F4.72441
G01 X0.95669 Y0.34646
G01 X0.95678 Y0.30529
G01 X0.95732 Y0.30214
G01 X0.95838 Y0.29912
G01 X0.96002 Y0.29614
G01 X0.96201 Y0.29363
G01 X0.96422 Y0.29161
G01 X0.96654 Y0.29004
G01 X0.96924 Y0.28874
G01 X0.97191 Y0.28791
G01 X0.97488 Y0.28746
G01 X0.97768 Y0.28744
G01 X0.98065 Y0.28787
G01 X0.98352 Y0.28874
G01 X0.98622 Y0.29004
G01 X0.98870 Y0.29173
G01 X0.99089 Y0.29378
G01 X0.99263 Y0.29597
G01 X0.99404 Y0.29839
G01 X0.99515 Y0.30118
G01 X0.99583 Y0.30410
G01 X0.99606 Y0.30708
G01 X1.42559 Y0.30709
G01 X1.42952 Y0.30757
G01 X1.43327 Y0.30882
G01 X1.43670 Y0.31080
G01 X1.43939 Y0.31313
G01 X1.44183 Y0.31625
G01 X1.44346 Y0.31942
G01 X1.44448 Y0.32283
G01 X1.44488 Y0.32637
G01 X1.44488 Y0.74149
G01 X1.44888 Y0.74414
G01 X1.45282 Y0.74754
G01 X1.45603 Y0.75111
G01 X1.45899 Y0.75539
G01 X1.46135 Y0.76002
G01 X1.46298 Y0.76453
G01 X1.46411 Y0.76961
G01 X1.46455 Y0.77439
G01 X1.46444 Y0.77879
G01 X1.46391 Y0.78275
G01 X1.46298 Y0.78665
G01 X1.46166 Y0.79043
G01 X1.45978 Y0.79440
G01 X1.45769 Y0.79782
G01 X1.45527 Y0.80100
G01 X1.45254 Y0.80392
G01 X1.44824 Y0.80751
G01 X1.44348 Y0.81046
G01 X1.43835 Y0.81270
G01 X1.43334 Y0.81411
G01 X1.42780 Y0.81487
G01 X1.42220 Y0.81485
G01 X1.41666 Y0.81402
G01 X1.41167 Y0.81256
G01 X1.40656 Y0.81027
G01 X1.40183 Y0.80728
G01 X1.39786 Y0.80392
G01 X1.39411 Y0.79975
G01 X1.39100 Y0.79510
G01 X1.38873 Y0.79043
G01 X1.38699 Y0.78510
G01 X1.38603 Y0.77959
G01 X1.38586 Y0.77399
G01 X1.38648 Y0.76843
G01 X1.38789 Y0.76301
G01 X1.39005 Y0.75784
G01 X1.39293 Y0.75304
G01 X1.39645 Y0.74869
G01 X1.40056 Y0.74488
G01 X1.40281 Y0.74321
G01 X1.40551 Y0.74150
G01 X1.40551 Y0.34646
G01 X0.99606 Y0.34646
G01 X0.99596 Y0.34845
G01 X0.99566 Y0.35043
G01 X0.99515 Y0.35237
G01 X0.99438 Y0.35443
G01 X0.99347 Y0.35621
G01 X0.99228 Y0.35806
G01 X0.99089 Y0.35976
G01 X0.98946 Y0.36117
G01 X0.98790 Y0.36242
G01 X0.98605 Y0.36360
G01 X0.98407 Y0.36457
G01 X0.98219 Y0.36526
G01 X0.98006 Y0.36579
G01 X0.97808 Y0.36607
G01 X0.97608 Y0.36614
G01 X0.97408 Y0.36601
G01 X0.97094 Y0.36538
G01 X0.96795 Y0.36425
G01 X0.96518 Y0.36265
G01 X0.96271 Y0.36062
G01 X0.96059 Y0.35822
G01 X0.95890 Y0.35551
G01 X0.95766 Y0.35256
G01 X0.95695 Y0.34964
G01 X0.95669 Y0.34646

G04 P0 ( dwell for no time -- G64 should not smooth over this point )
G00 Z0.196850 ( retract )

M5 ( Spindle off. )
G04 P1.000000
M9 ( Coolant off. )
M2 ( Program end. )

