( pcb2gcode 3.0.3 )
( Software-independent Gcode )

G94 ( Inches per minute feed rate. )
G20 ( Units == INCHES. )

G90 ( Absolute coordinates. )
G00 S10000 ( RPM spindle speed. )
G64 P0.00040 ( set maximum deviation from commanded toolpath )
G01 F4.72441 ( Feedrate. )


G00 Z0.19685 (Retract to tool change height)
T1
M5      (Spindle stop.)
G04 P1.00000 (Wait for spindle to stop)
(MSG, Change tool bit to mill diameter 0.00000in)
M6      (Tool change.)
M0      (Temporary machine stop.)
M3 ( Spindle on clockwise. )
G04 P1.00000 (Wait for spindle to get up to speed)
G04 P0 ( dwell for no time -- G64 should not smooth over this point )
G00 Z0.19685 ( retract )

G00 X0.38563 Y0.62460 ( rapid move to begin. )
G01 F2.36220
( Mill infeed pass 1/1 )
G01 Z-0.02362
G04 P0 ( dwell for no time -- G64 should not smooth over this point )
G01 F4.72441
G01 X0.38563 Y0.62460
G01 X0.38579 Y0.62860
G01 X0.38644 Y0.63295
G01 X0.38745 Y0.63682
G01 X0.38900 Y0.64094
G01 X0.39080 Y0.64451
G01 X0.39296 Y0.64788
G01 X0.39653 Y0.65219
G01 X0.40068 Y0.65596
G01 X0.40531 Y0.65909
G01 X0.40779 Y0.66041
G01 X0.41072 Y0.66169
G01 X0.41607 Y0.66334
G01 X0.41922 Y0.66394
G01 X0.42200 Y0.66426
G01 X0.42480 Y0.66437
G01 X0.42800 Y0.66426
G01 X0.43354 Y0.66343
G01 X0.43890 Y0.66183
G01 X0.44149 Y0.66075
G01 X0.44434 Y0.65929
G01 X0.44673 Y0.65783
G01 X0.44932 Y0.65596
G01 X0.45347 Y0.65219
G01 X0.45533 Y0.65010
G01 X0.45727 Y0.64755
G01 X0.46014 Y0.64275
G01 X0.46230 Y0.63758
G01 X0.46320 Y0.63451
G01 X0.46378 Y0.63177
G01 X0.46420 Y0.62860
G01 X0.46436 Y0.62580
G01 X0.46432 Y0.62300
G01 X0.46403 Y0.61981
G01 X0.46356 Y0.61705
G01 X0.46279 Y0.61394
G01 X0.46176 Y0.61091
G01 X0.46067 Y0.60833
G01 X0.45939 Y0.60584
G01 X0.45772 Y0.60311
G01 X0.45608 Y0.60084
G01 X0.45402 Y0.59839
G01 X0.45205 Y0.59639
G01 X0.44964 Y0.59429
G01 X0.44706 Y0.59239
G01 X0.44468 Y0.59090
G01 X0.44468 Y0.34469
G01 X0.85531 Y0.34469
G01 X0.85542 Y0.34668
G01 X0.85572 Y0.34866
G01 X0.85628 Y0.35079
G01 X0.85700 Y0.35265
G01 X0.85790 Y0.35444
G01 X0.85910 Y0.35629
G01 X0.86036 Y0.35784
G01 X0.86192 Y0.35939
G01 X0.86348 Y0.36064
G01 X0.86533 Y0.36183
G01 X0.86712 Y0.36272
G01 X0.86918 Y0.36349
G01 X0.87112 Y0.36398
G01 X0.87310 Y0.36428
G01 X0.87530 Y0.36437
G01 X0.87730 Y0.36423
G01 X0.88024 Y0.36366
G01 X0.88306 Y0.36264
G01 X0.88570 Y0.36121
G01 X0.88823 Y0.35926
G01 X0.89029 Y0.35708
G01 X0.89210 Y0.35444
G01 X0.89345 Y0.35154
G01 X0.89428 Y0.34866
G01 X0.89468 Y0.34488
G01 X0.89466 Y0.30431
G01 X0.89436 Y0.30173
G01 X0.89365 Y0.29902
G01 X0.89266 Y0.29662
G01 X0.89136 Y0.29437
G01 X0.88951 Y0.29201
G01 X0.88716 Y0.28984
G01 X0.88467 Y0.28817
G01 X0.88176 Y0.28683
G01 X0.87868 Y0.28598
G01 X0.87570 Y0.28564
G01 X0.87250 Y0.28579
G01 X0.86938 Y0.28645
G01 X0.86657 Y0.28752
G01 X0.86380 Y0.28912
G01 X0.86133 Y0.29115
G01 X0.85922 Y0.29355
G01 X0.85752 Y0.29626
G01 X0.85628 Y0.29921
G01 X0.85557 Y0.30213
G01 X0.85531 Y0.30531
G01 X0.42500 Y0.30531
G01 X0.42223 Y0.30551
G01 X0.41914 Y0.30621
G01 X0.41620 Y0.30739
G01 X0.41349 Y0.30903
G01 X0.41195 Y0.31027
G01 X0.41026 Y0.31195
G01 X0.40880 Y0.31382
G01 X0.40757 Y0.31585
G01 X0.40659 Y0.31802
G01 X0.40589 Y0.32029
G01 X0.40546 Y0.32263
G01 X0.40532 Y0.32460
G01 X0.40531 Y0.59090
G01 X0.40196 Y0.59308
G01 X0.39883 Y0.59558
G01 X0.39598 Y0.59839
G01 X0.39320 Y0.60179
G01 X0.39100 Y0.60514
G01 X0.38916 Y0.60869
G01 X0.38770 Y0.61242
G01 X0.38652 Y0.61666
G01 X0.38588 Y0.62061
G01 X0.38563 Y0.62460
G04 P0 ( dwell for no time -- G64 should not smooth over this point )
G00 Z0.19685 ( retract )

G00 X0.38563 Y1.12540 ( rapid move to begin. )
G01 F2.36220
( Mill infeed pass 1/1 )
G01 Z-0.02362
G04 P0 ( dwell for no time -- G64 should not smooth over this point )
G01 F4.72441
G01 X0.38563 Y1.12540
G01 X0.38592 Y1.12021
G01 X0.38680 Y1.11549
G01 X0.38838 Y1.11054
G01 X0.39042 Y1.10619
G01 X0.39296 Y1.10212
G01 X0.39598 Y1.09839
G01 X0.39974 Y1.09480
G01 X0.40361 Y1.09195
G01 X0.40815 Y1.08942
G01 X0.41260 Y1.08763
G01 X0.41724 Y1.08640
G01 X0.42240 Y1.08571
G01 X0.42760 Y1.08571
G01 X0.43236 Y1.08632
G01 X0.43739 Y1.08763
G01 X0.44185 Y1.08942
G01 X0.44639 Y1.09195
G01 X0.45026 Y1.09480
G01 X0.45402 Y1.09839
G01 X0.45704 Y1.10212
G01 X0.45977 Y1.10654
G01 X0.46176 Y1.11091
G01 X0.46320 Y1.11549
G01 X0.46408 Y1.12021
G01 X0.46432 Y1.12300
G01 X0.46435 Y1.12620
G01 X0.46378 Y1.13177
G01 X0.46320 Y1.13451
G01 X0.46230 Y1.13758
G01 X0.46014 Y1.14275
G01 X0.45727 Y1.14755
G01 X0.45374 Y1.15190
G01 X0.44964 Y1.15571
G01 X0.44706 Y1.15761
G01 X0.44468 Y1.15909
G01 X0.44468 Y1.43031
G01 X0.65000 Y1.43031
G01 X0.65299 Y1.43054
G01 X0.65610 Y1.43128
G01 X0.65905 Y1.43252
G01 X0.66176 Y1.43422
G01 X0.66444 Y1.43662
G01 X0.66649 Y1.43925
G01 X0.67003 Y1.44111
G01 X0.67304 Y1.44308
G01 X0.67586 Y1.44532
G01 X0.67874 Y1.44810
G01 X0.68204 Y1.45212
G01 X0.68477 Y1.45654
G01 X0.68690 Y1.46128
G01 X0.68830 Y1.46588
G01 X0.68891 Y1.46902
G01 X0.68924 Y1.47180
G01 X0.68930 Y1.47740
G01 X0.68856 Y1.48295
G01 X0.68704 Y1.48834
G01 X0.68477 Y1.49346
G01 X0.68180 Y1.49821
G01 X0.67819 Y1.50248
G01 X0.67401 Y1.50620
G01 X0.67139 Y1.50805
G01 X0.66899 Y1.50949
G01 X0.66390 Y1.51183
G01 X0.65854 Y1.51343
G01 X0.65539 Y1.51400
G01 X0.65260 Y1.51428
G01 X0.64940 Y1.51436
G01 X0.64660 Y1.51422
G01 X0.64107 Y1.51334
G01 X0.63837 Y1.51261
G01 X0.63535 Y1.51154
G01 X0.63031 Y1.50910
G01 X0.62761 Y1.50738
G01 X0.62536 Y1.50571
G01 X0.62126 Y1.50190
G01 X0.61773 Y1.49755
G01 X0.61601 Y1.49486
G01 X0.61468 Y1.49239
G01 X0.61338 Y1.48946
G01 X0.61245 Y1.48682
G01 X0.61115 Y1.48138
G01 X0.61076 Y1.47820
G01 X0.61063 Y1.47540
G01 X0.61070 Y1.47260
G01 X0.61099 Y1.46968
G01 X0.42421 Y1.46967
G01 X0.42184 Y1.46943
G01 X0.41952 Y1.46891
G01 X0.41728 Y1.46811
G01 X0.41516 Y1.46705
G01 X0.41349 Y1.46597
G01 X0.41165 Y1.46447
G01 X0.41001 Y1.46275
G01 X0.40858 Y1.46085
G01 X0.40721 Y1.45844
G01 X0.40621 Y1.45586
G01 X0.40557 Y1.45316
G01 X0.40532 Y1.45040
G01 X0.40531 Y1.15909
G01 X0.40099 Y1.15620
G01 X0.39709 Y1.15277
G01 X0.39367 Y1.14885
G01 X0.39100 Y1.14486
G01 X0.38868 Y1.14020
G01 X0.38710 Y1.13567
G01 X0.38603 Y1.13058
G01 X0.38563 Y1.12540
G04 P0 ( dwell for no time -- G64 should not smooth over this point )
G00 Z0.19685 ( retract )

G00 X0.61063 Y1.17500 ( rapid move to begin. )
G01 F2.36220
( Mill infeed pass 1/1 )
G01 Z-0.02362
G04 P0 ( dwell for no time -- G64 should not smooth over this point )
G01 F4.72441
G01 X0.61063 Y1.17500
G01 X0.61079 Y1.17860
G01 X0.61136 Y1.18256
G01 X0.61233 Y1.18644
G01 X0.61368 Y1.19020
G01 X0.61523 Y1.19346
G01 X0.61728 Y1.19689
G01 X0.61942 Y1.19979
G01 X0.62209 Y1.20277
G01 X0.62474 Y1.20520
G01 X0.62794 Y1.20761
G01 X0.63101 Y1.20949
G01 X0.63461 Y1.21124
G01 X0.63799 Y1.21249
G01 X0.64185 Y1.21352
G01 X0.64580 Y1.21415
G01 X0.64980 Y1.21437
G01 X0.65380 Y1.21419
G01 X0.65775 Y1.21360
G01 X0.66125 Y1.21273
G01 X0.66502 Y1.21139
G01 X0.66864 Y1.20968
G01 X0.67173 Y1.20783
G01 X0.67495 Y1.20546
G01 X0.67791 Y1.20277
G01 X0.68033 Y1.20010
G01 X0.68272 Y1.19689
G01 X0.68458 Y1.19381
G01 X0.68632 Y1.19020
G01 X0.68767 Y1.18644
G01 X0.68864 Y1.18256
G01 X0.68917 Y1.17900
G01 X0.68937 Y1.17500
G01 X0.68920 Y1.17140
G01 X0.68864 Y1.16744
G01 X0.68767 Y1.16356
G01 X0.68632 Y1.15979
G01 X0.68477 Y1.15654
G01 X0.68272 Y1.15311
G01 X0.68058 Y1.15021
G01 X0.67791 Y1.14723
G01 X0.67526 Y1.14480
G01 X0.67206 Y1.14239
G01 X0.66899 Y1.14051
G01 X0.66539 Y1.13876
G01 X0.66201 Y1.13751
G01 X0.65815 Y1.13648
G01 X0.65419 Y1.13585
G01 X0.65020 Y1.13563
G01 X0.64620 Y1.13581
G01 X0.64224 Y1.13640
G01 X0.63875 Y1.13727
G01 X0.63498 Y1.13861
G01 X0.63136 Y1.14032
G01 X0.62827 Y1.14217
G01 X0.62505 Y1.14454
G01 X0.62209 Y1.14723
G01 X0.61967 Y1.14990
G01 X0.61728 Y1.15311
G01 X0.61542 Y1.15619
G01 X0.61368 Y1.15979
G01 X0.61233 Y1.16356
G01 X0.61136 Y1.16744
G01 X0.61083 Y1.17100
G01 X0.61063 Y1.17500
G04 P0 ( dwell for no time -- G64 should not smooth over this point )
G00 Z0.19685 ( retract )

G00 X0.63031 Y1.17520 ( rapid move to begin. )
G01 F2.36220
( Mill infeed pass 1/1 )
G01 Z-0.02362
G04 P0 ( dwell for no time -- G64 should not smooth over this point )
G01 F4.72441
G01 X0.63031 Y1.17520
G01 X0.63044 Y1.17720
G01 X0.63076 Y1.17917
G01 X0.63128 Y1.18110
G01 X0.63200 Y1.18297
G01 X0.63290 Y1.18476
G01 X0.63398 Y1.18644
G01 X0.63633 Y1.18916
G01 X0.63784 Y1.19048
G01 X0.63947 Y1.19163
G01 X0.64121 Y1.19262
G01 X0.64305 Y1.19342
G01 X0.64495 Y1.19403
G01 X0.64691 Y1.19444
G01 X0.65050 Y1.19468
G01 X0.65249 Y1.19453
G01 X0.65446 Y1.19417
G01 X0.65788 Y1.19304
G01 X0.65967 Y1.19215
G01 X0.66136 Y1.19108
G01 X0.66409 Y1.18874
G01 X0.66542 Y1.18724
G01 X0.66658 Y1.18561
G01 X0.66757 Y1.18387
G01 X0.66838 Y1.18205
G01 X0.66936 Y1.17858
G01 X0.66962 Y1.17660
G01 X0.66968 Y1.17460
G01 X0.66928 Y1.17102
G01 X0.66878 Y1.16909
G01 X0.66808 Y1.16721
G01 X0.66719 Y1.16542
G01 X0.66613 Y1.16372
G01 X0.66491 Y1.16214
G01 X0.66352 Y1.16070
G01 X0.66200 Y1.15940
G01 X0.66036 Y1.15826
G01 X0.65714 Y1.15665
G01 X0.65524 Y1.15603
G01 X0.65329 Y1.15559
G01 X0.64970 Y1.15532
G01 X0.64770 Y1.15545
G01 X0.64573 Y1.15578
G01 X0.64231 Y1.15688
G01 X0.64051 Y1.15776
G01 X0.63880 Y1.15881
G01 X0.63604 Y1.16111
G01 X0.63471 Y1.16260
G01 X0.63353 Y1.16422
G01 X0.63252 Y1.16595
G01 X0.63169 Y1.16777
G01 X0.63105 Y1.16966
G01 X0.63061 Y1.17161
G01 X0.63031 Y1.17520
G04 P0 ( dwell for no time -- G64 should not smooth over this point )
G00 Z0.19685 ( retract )

G00 X0.63032 Y1.47440 ( rapid move to begin. )
G01 F2.36220
( Mill infeed pass 1/1 )
G01 Z-0.02362
G04 P0 ( dwell for no time -- G64 should not smooth over this point )
G01 F4.72441
G01 X0.63032 Y1.47440
G01 X0.63040 Y1.47680
G01 X0.63076 Y1.47917
G01 X0.63141 Y1.48148
G01 X0.63234 Y1.48369
G01 X0.63353 Y1.48578
G01 X0.63471 Y1.48740
G01 X0.63604 Y1.48888
G01 X0.63753 Y1.49023
G01 X0.63914 Y1.49141
G01 X0.64086 Y1.49243
G01 X0.64267 Y1.49327
G01 X0.64457 Y1.49392
G01 X0.64810 Y1.49459
G01 X0.65010 Y1.49468
G01 X0.65210 Y1.49457
G01 X0.65562 Y1.49386
G01 X0.65751 Y1.49320
G01 X0.65932 Y1.49234
G01 X0.66232 Y1.49035
G01 X0.66381 Y1.48903
G01 X0.66517 Y1.48755
G01 X0.66719 Y1.48458
G01 X0.66865 Y1.48129
G01 X0.66919 Y1.47937
G01 X0.66954 Y1.47740
G01 X0.66968 Y1.47540
G01 X0.66962 Y1.47340
G01 X0.66936 Y1.47142
G01 X0.66889 Y1.46947
G01 X0.66823 Y1.46758
G01 X0.66739 Y1.46577
G01 X0.66521 Y1.46250
G01 X0.66255 Y1.46517
G01 X0.65958 Y1.46720
G01 X0.65667 Y1.46852
G01 X0.65397 Y1.46928
G01 X0.65040 Y1.46968
G01 X0.63105 Y1.46968
G01 X0.63054 Y1.47201
G01 X0.63032 Y1.47440
G04 P0 ( dwell for no time -- G64 should not smooth over this point )
G00 Z0.19685 ( retract )

G00 X1.03032 Y1.47520 ( rapid move to begin. )
G01 F2.36220
( Mill infeed pass 1/1 )
G01 Z-0.02362
G04 P0 ( dwell for no time -- G64 should not smooth over this point )
G01 F4.72441
G01 X1.03032 Y1.47520
G01 X1.03044 Y1.47720
G01 X1.03076 Y1.47917
G01 X1.03128 Y1.48110
G01 X1.03200 Y1.48297
G01 X1.03290 Y1.48476
G01 X1.03398 Y1.48644
G01 X1.03633 Y1.48916
G01 X1.03914 Y1.49141
G01 X1.04086 Y1.49243
G01 X1.04268 Y1.49327
G01 X1.04457 Y1.49392
G01 X1.04652 Y1.49437
G01 X1.04850 Y1.49463
G01 X1.05050 Y1.49468
G01 X1.05249 Y1.49453
G01 X1.05446 Y1.49417
G01 X1.05639 Y1.49362
G01 X1.05824 Y1.49287
G01 X1.06001 Y1.49195
G01 X1.06168 Y1.49084
G01 X1.06437 Y1.48845
G01 X1.06566 Y1.48692
G01 X1.06679 Y1.48527
G01 X1.06838 Y1.48205
G01 X1.06900 Y1.48014
G01 X1.06943 Y1.47819
G01 X1.06968 Y1.47460
G01 X1.06954 Y1.47260
G01 X1.06919 Y1.47063
G01 X1.06865 Y1.46871
G01 X1.06792 Y1.46685
G01 X1.06700 Y1.46507
G01 X1.06590 Y1.46340
G01 X1.06352 Y1.46070
G01 X1.06070 Y1.45847
G01 X1.05896 Y1.45747
G01 X1.05714 Y1.45665
G01 X1.05524 Y1.45602
G01 X1.05329 Y1.45559
G01 X1.04970 Y1.45532
G01 X1.04770 Y1.45545
G01 X1.04573 Y1.45578
G01 X1.04231 Y1.45688
G01 X1.03914 Y1.45858
G01 X1.03753 Y1.45977
G01 X1.03605 Y1.46111
G01 X1.03471 Y1.46260
G01 X1.03353 Y1.46422
G01 X1.03252 Y1.46595
G01 X1.03169 Y1.46777
G01 X1.03068 Y1.47122
G01 X1.03040 Y1.47320
G01 X1.03032 Y1.47520
G04 P0 ( dwell for no time -- G64 should not smooth over this point )
G00 Z0.19685 ( retract )

G00 X1.01063 Y1.47500 ( rapid move to begin. )
G01 F2.36220
( Mill infeed pass 1/1 )
G01 Z-0.02362
G04 P0 ( dwell for no time -- G64 should not smooth over this point )
G01 F4.72441
G01 X1.01063 Y1.47500
G01 X1.01083 Y1.47100
G01 X1.01144 Y1.46705
G01 X1.01245 Y1.46318
G01 X1.01368 Y1.45979
G01 X1.01541 Y1.45619
G01 X1.01750 Y1.45277
G01 X1.01993 Y1.44959
G01 X1.02237 Y1.44695
G01 X1.02536 Y1.44429
G01 X1.02861 Y1.44195
G01 X1.03207 Y1.43995
G01 X1.03535 Y1.43846
G01 X1.03913 Y1.43716
G01 X1.04264 Y1.43632
G01 X1.04660 Y1.43578
G01 X1.05020 Y1.43563
G01 X1.05419 Y1.43585
G01 X1.05815 Y1.43648
G01 X1.06201 Y1.43751
G01 X1.06539 Y1.43876
G01 X1.06864 Y1.44032
G01 X1.07206 Y1.44239
G01 X1.07526 Y1.44480
G01 X1.07791 Y1.44723
G01 X1.08058 Y1.45021
G01 X1.08294 Y1.45344
G01 X1.08477 Y1.45654
G01 X1.08647 Y1.46016
G01 X1.08779 Y1.46394
G01 X1.08864 Y1.46744
G01 X1.08920 Y1.47140
G01 X1.08937 Y1.47500
G01 X1.08917 Y1.47900
G01 X1.08856 Y1.48295
G01 X1.08755 Y1.48682
G01 X1.08631 Y1.49020
G01 X1.08458 Y1.49381
G01 X1.08250 Y1.49723
G01 X1.08007 Y1.50041
G01 X1.07763 Y1.50305
G01 X1.07464 Y1.50571
G01 X1.07139 Y1.50805
G01 X1.06793 Y1.51005
G01 X1.06465 Y1.51154
G01 X1.06086 Y1.51284
G01 X1.05736 Y1.51368
G01 X1.05340 Y1.51422
G01 X1.04980 Y1.51437
G01 X1.04581 Y1.51415
G01 X1.04185 Y1.51352
G01 X1.03837 Y1.51261
G01 X1.03461 Y1.51124
G01 X1.03136 Y1.50968
G01 X1.02794 Y1.50761
G01 X1.02474 Y1.50520
G01 X1.02209 Y1.50277
G01 X1.01942 Y1.49979
G01 X1.01706 Y1.49656
G01 X1.01523 Y1.49346
G01 X1.01353 Y1.48983
G01 X1.01221 Y1.48606
G01 X1.01136 Y1.48256
G01 X1.01079 Y1.47860
G01 X1.01063 Y1.47500
G01 X1.01066 Y1.17340
G01 X1.01076 Y1.17820
G01 X1.01144 Y1.18295
G01 X1.01257 Y1.18720
G01 X1.01433 Y1.19167
G01 X1.01684 Y1.19622
G01 X1.02019 Y1.20071
G01 X1.02414 Y1.20468
G01 X1.02861 Y1.20805
G01 X1.03351 Y1.21075
G01 X1.03875 Y1.21273
G01 X1.04422 Y1.21394
G01 X1.04980 Y1.21437
G01 X1.05499 Y1.21405
G01 X1.06009 Y1.21305
G01 X1.06502 Y1.21139
G01 X1.06968 Y1.20910
G01 X1.07401 Y1.20620
G01 X1.07791 Y1.20277
G01 X1.08133 Y1.19885
G01 X1.08409 Y1.19468
G01 X1.42500 Y1.19468
G01 X1.42737 Y1.19454
G01 X1.42971 Y1.19411
G01 X1.43198 Y1.19341
G01 X1.43415 Y1.19243
G01 X1.43618 Y1.19120
G01 X1.43805 Y1.18973
G01 X1.43973 Y1.18805
G01 X1.44142 Y1.18585
G01 X1.44261 Y1.18379
G01 X1.44367 Y1.18123
G01 X1.44429 Y1.17894
G01 X1.44465 Y1.17619
G01 X1.44468 Y1.00910
G01 X1.44772 Y1.00715
G01 X1.45086 Y1.00468
G01 X1.45347 Y1.00219
G01 X1.45608 Y0.99916
G01 X1.45816 Y0.99622
G01 X1.46014 Y0.99275
G01 X1.46162 Y0.98946
G01 X1.46290 Y0.98567
G01 X1.46371 Y0.98216
G01 X1.46420 Y0.97860
G01 X1.46437 Y0.97500
G01 X1.46417 Y0.97100
G01 X1.46364 Y0.96744
G01 X1.46267 Y0.96356
G01 X1.46147 Y0.96017
G01 X1.45977 Y0.95654
G01 X1.45837 Y0.95411
G01 X1.45657 Y0.95147
G01 X1.45291 Y0.94723
G01 X1.45056 Y0.94506
G01 X1.44837 Y0.94331
G01 X1.44364 Y0.94032
G01 X1.43853 Y0.93803
G01 X1.43586 Y0.93716
G01 X1.43275 Y0.93640
G01 X1.42959 Y0.93590
G01 X1.42680 Y0.93567
G01 X1.42360 Y0.93565
G01 X1.42081 Y0.93585
G01 X1.41529 Y0.93685
G01 X1.41223 Y0.93776
G01 X1.40961 Y0.93876
G01 X1.40707 Y0.93995
G01 X1.40428 Y0.94152
G01 X1.40163 Y0.94331
G01 X1.39944 Y0.94506
G01 X1.39545 Y0.94898
G01 X1.39367 Y0.95115
G01 X1.39184 Y0.95378
G01 X1.39041 Y0.95619
G01 X1.38900 Y0.95906
G01 X1.38796 Y0.96166
G01 X1.38700 Y0.96471
G01 X1.38629 Y0.96784
G01 X1.38583 Y0.97100
G01 X1.38564 Y0.97420
G01 X1.38570 Y0.97740
G01 X1.38603 Y0.98058
G01 X1.38661 Y0.98373
G01 X1.38745 Y0.98682
G01 X1.38853 Y0.98983
G01 X1.38986 Y0.99275
G01 X1.39142 Y0.99555
G01 X1.39320 Y0.99821
G01 X1.39519 Y1.00071
G01 X1.39737 Y1.00305
G01 X1.39974 Y1.00520
G01 X1.40261 Y1.00738
G01 X1.40531 Y1.00910
G01 X1.40531 Y1.15531
G01 X1.08409 Y1.15531
G01 X1.08250 Y1.15277
G01 X1.08083 Y1.15052
G01 X1.07705 Y1.14639
G01 X1.07272 Y1.14285
G01 X1.06793 Y1.13995
G01 X1.06277 Y1.13776
G01 X1.05736 Y1.13632
G01 X1.05180 Y1.13567
G01 X1.04620 Y1.13581
G01 X1.04185 Y1.13648
G01 X1.03723 Y1.13776
G01 X1.03279 Y1.13959
G01 X1.02861 Y1.14195
G01 X1.02474 Y1.14480
G01 X1.02153 Y1.14780
G01 X1.01843 Y1.15147
G01 X1.01580 Y1.15549
G01 X1.01384 Y1.15943
G01 X1.01221 Y1.16394
G01 X1.01115 Y1.16862
G01 X1.01066 Y1.17340
G04 P0 ( dwell for no time -- G64 should not smooth over this point )
G00 Z0.19685 ( retract )

G00 X1.03032 Y1.17520 ( rapid move to begin. )
G01 F2.36220
( Mill infeed pass 1/1 )
G01 Z-0.02362
G04 P0 ( dwell for no time -- G64 should not smooth over this point )
G01 F4.72441
G01 X1.03032 Y1.17520
G01 X1.03040 Y1.17320
G01 X1.03105 Y1.16966
G01 X1.03169 Y1.16777
G01 X1.03252 Y1.16595
G01 X1.03353 Y1.16422
G01 X1.03471 Y1.16260
G01 X1.03605 Y1.16111
G01 X1.03753 Y1.15977
G01 X1.04051 Y1.15776
G01 X1.04342 Y1.15644
G01 X1.04652 Y1.15562
G01 X1.05010 Y1.15532
G01 X1.05329 Y1.15559
G01 X1.05676 Y1.15651
G01 X1.05967 Y1.15785
G01 X1.06250 Y1.15979
G01 X1.06097 Y1.16119
G01 X1.05964 Y1.16268
G01 X1.05847 Y1.16430
G01 X1.05730 Y1.16639
G01 X1.05651 Y1.16823
G01 X1.05583 Y1.17054
G01 X1.05547 Y1.17250
G01 X1.05532 Y1.17490
G01 X1.05541 Y1.17690
G01 X1.05570 Y1.17888
G01 X1.05619 Y1.18081
G01 X1.05704 Y1.18306
G01 X1.05795 Y1.18484
G01 X1.05904 Y1.18652
G01 X1.06056 Y1.18838
G01 X1.06250 Y1.19020
G01 X1.05932 Y1.19234
G01 X1.05751 Y1.19320
G01 X1.05562 Y1.19386
G01 X1.05210 Y1.19457
G01 X1.05010 Y1.19468
G01 X1.04810 Y1.19459
G01 X1.04457 Y1.19392
G01 X1.04268 Y1.19327
G01 X1.04086 Y1.19243
G01 X1.03914 Y1.19141
G01 X1.03753 Y1.19023
G01 X1.03605 Y1.18888
G01 X1.03471 Y1.18739
G01 X1.03271 Y1.18441
G01 X1.03184 Y1.18260
G01 X1.03116 Y1.18072
G01 X1.03044 Y1.17720
G01 X1.03032 Y1.17520
G04 P0 ( dwell for no time -- G64 should not smooth over this point )
G00 Z0.19685 ( retract )

G00 X0.95531 Y0.34469 ( rapid move to begin. )
G01 F2.36220
( Mill infeed pass 1/1 )
G01 Z-0.02362
G04 P0 ( dwell for no time -- G64 should not smooth over this point )
G01 F4.72441
G01 X0.95531 Y0.34469
G01 X0.95540 Y0.30352
G01 X0.95595 Y0.30036
G01 X0.95700 Y0.29734
G01 X0.95864 Y0.29437
G01 X0.96063 Y0.29186
G01 X0.96284 Y0.28984
G01 X0.96516 Y0.28827
G01 X0.96786 Y0.28697
G01 X0.97073 Y0.28610
G01 X0.97370 Y0.28567
G01 X0.97670 Y0.28570
G01 X0.97966 Y0.28619
G01 X0.98232 Y0.28704
G01 X0.98484 Y0.28827
G01 X0.98732 Y0.28996
G01 X0.98951 Y0.29201
G01 X0.99125 Y0.29420
G01 X0.99275 Y0.29680
G01 X0.99384 Y0.29959
G01 X0.99446 Y0.30232
G01 X0.99469 Y0.30531
G01 X1.42540 Y0.30532
G01 X1.42932 Y0.30579
G01 X1.43308 Y0.30705
G01 X1.43651 Y0.30903
G01 X1.43920 Y0.31136
G01 X1.44164 Y0.31448
G01 X1.44326 Y0.31765
G01 X1.44429 Y0.32106
G01 X1.44468 Y0.32460
G01 X1.44468 Y0.74090
G01 X1.44901 Y0.74380
G01 X1.45263 Y0.74695
G01 X1.45583 Y0.75052
G01 X1.45879 Y0.75480
G01 X1.46116 Y0.75943
G01 X1.46279 Y0.76394
G01 X1.46391 Y0.76902
G01 X1.46435 Y0.77380
G01 X1.46424 Y0.77820
G01 X1.46371 Y0.78216
G01 X1.46279 Y0.78606
G01 X1.46147 Y0.78983
G01 X1.45958 Y0.79381
G01 X1.45750 Y0.79722
G01 X1.45507 Y0.80041
G01 X1.45234 Y0.80333
G01 X1.44804 Y0.80692
G01 X1.44328 Y0.80987
G01 X1.43815 Y0.81211
G01 X1.43315 Y0.81352
G01 X1.42760 Y0.81428
G01 X1.42200 Y0.81425
G01 X1.41646 Y0.81343
G01 X1.41147 Y0.81197
G01 X1.40636 Y0.80968
G01 X1.40163 Y0.80668
G01 X1.39766 Y0.80333
G01 X1.39392 Y0.79916
G01 X1.39080 Y0.79451
G01 X1.38853 Y0.78983
G01 X1.38680 Y0.78451
G01 X1.38583 Y0.77899
G01 X1.38566 Y0.77340
G01 X1.38629 Y0.76784
G01 X1.38769 Y0.76241
G01 X1.38986 Y0.75725
G01 X1.39273 Y0.75245
G01 X1.39626 Y0.74810
G01 X1.39854 Y0.74585
G01 X1.40068 Y0.74404
G01 X1.40531 Y0.74090
G01 X1.40531 Y0.34469
G01 X0.99469 Y0.34469
G01 X0.99456 Y0.34688
G01 X0.99424 Y0.34886
G01 X0.99372 Y0.35079
G01 X0.99300 Y0.35265
G01 X0.99210 Y0.35444
G01 X0.99090 Y0.35629
G01 X0.98951 Y0.35799
G01 X0.98808 Y0.35939
G01 X0.98652 Y0.36064
G01 X0.98467 Y0.36183
G01 X0.98269 Y0.36280
G01 X0.98081 Y0.36349
G01 X0.97868 Y0.36402
G01 X0.97670 Y0.36430
G01 X0.97470 Y0.36437
G01 X0.97270 Y0.36423
G01 X0.96957 Y0.36361
G01 X0.96657 Y0.36248
G01 X0.96380 Y0.36088
G01 X0.96133 Y0.35885
G01 X0.95922 Y0.35645
G01 X0.95752 Y0.35374
G01 X0.95628 Y0.35079
G01 X0.95557 Y0.34787
G01 X0.95531 Y0.34469

G04 P0 ( dwell for no time -- G64 should not smooth over this point )
G00 Z0.196850 ( retract )

M5 ( Spindle off. )
G04 P1.000000
M9 ( Coolant off. )
M2 ( Program end. )

