( pcb2gcode 3.0.3 )
( Software-independent Gcode )

G94 ( Inches per minute feed rate. )
G20 ( Units == INCHES. )

G90 ( Absolute coordinates. )
G00 S10000 ( RPM spindle speed. )
G64 P0.00040 ( set maximum deviation from commanded toolpath )
G01 F4.72441 ( Feedrate. )


G00 Z0.19685 (Retract to tool change height)
T1
M5      (Spindle stop.)
G04 P1.00000 (Wait for spindle to stop)
(MSG, Change tool bit to mill diameter 0.00000in)
M6      (Tool change.)
M0      (Temporary machine stop.)
M3 ( Spindle on clockwise. )
G04 P1.00000 (Wait for spindle to get up to speed)
G04 P0 ( dwell for no time -- G64 should not smooth over this point )
G00 Z0.19685 ( retract )

G00 X0.86064 Y0.59920 ( rapid move to begin. )
G01 F2.36220
( Mill infeed pass 1/1 )
G01 Z-0.02362
G04 P0 ( dwell for no time -- G64 should not smooth over this point )
G01 F4.72441
G01 X0.86064 Y0.59920
G01 X0.86087 Y0.60439
G01 X0.86180 Y0.60951
G01 X0.86338 Y0.61446
G01 X0.86561 Y0.61916
G01 X0.86843 Y0.62353
G01 X0.87181 Y0.62748
G01 X0.87568 Y0.63096
G01 X0.88031 Y0.63409
G01 X0.88031 Y0.86590
G01 X0.87631 Y0.86855
G01 X0.87237 Y0.87195
G01 X0.86916 Y0.87552
G01 X0.86621 Y0.87980
G01 X0.86400 Y0.88406
G01 X0.86221 Y0.88894
G01 X0.86109 Y0.89402
G01 X0.86064 Y0.89920
G01 X0.86076 Y0.90320
G01 X0.86136 Y0.90756
G01 X0.86233 Y0.91144
G01 X0.86384 Y0.91557
G01 X0.86561 Y0.91916
G01 X0.86796 Y0.92288
G01 X0.87072 Y0.92631
G01 X0.87384 Y0.92942
G01 X0.87663 Y0.93168
G01 X0.87962 Y0.93369
G01 X0.88279 Y0.93541
G01 X0.88647 Y0.93697
G01 X0.88991 Y0.93805
G01 X0.89343 Y0.93882
G01 X0.89700 Y0.93925
G01 X0.90100 Y0.93936
G01 X0.90578 Y0.93894
G01 X0.91086 Y0.93784
G01 X0.91539 Y0.93624
G01 X0.92003 Y0.93389
G01 X0.92401 Y0.93120
G01 X0.92791 Y0.92777
G01 X0.93132 Y0.92385
G01 X0.93409 Y0.91968
G01 X1.28031 Y0.91968
G01 X1.28031 Y1.26590
G01 X1.27794 Y1.26739
G01 X1.27536 Y1.26929
G01 X1.27295 Y1.27139
G01 X1.27098 Y1.27339
G01 X1.26917 Y1.27552
G01 X1.26728 Y1.27811
G01 X1.26561 Y1.28084
G01 X1.26416 Y1.28369
G01 X1.26310 Y1.28628
G01 X1.26210 Y1.28933
G01 X1.26144 Y1.29205
G01 X1.26092 Y1.29521
G01 X1.26066 Y1.29840
G01 X1.26065 Y1.30120
G01 X1.26087 Y1.30439
G01 X1.26136 Y1.30756
G01 X1.26233 Y1.31144
G01 X1.26384 Y1.31557
G01 X1.26561 Y1.31916
G01 X1.26796 Y1.32288
G01 X1.27045 Y1.32601
G01 X1.27354 Y1.32915
G01 X1.27663 Y1.33169
G01 X1.28031 Y1.33410
G01 X1.28038 Y1.40158
G01 X1.28099 Y1.40509
G01 X1.28222 Y1.40844
G01 X1.28403 Y1.41151
G01 X1.28636 Y1.41420
G01 X1.28882 Y1.41620
G01 X1.29192 Y1.41795
G01 X1.29529 Y1.41911
G01 X1.29881 Y1.41965
G01 X1.38031 Y1.41969
G01 X1.38031 Y1.56590
G01 X1.37794 Y1.56739
G01 X1.37536 Y1.56929
G01 X1.37295 Y1.57139
G01 X1.37098 Y1.57339
G01 X1.36916 Y1.57552
G01 X1.36728 Y1.57811
G01 X1.36561 Y1.58084
G01 X1.36417 Y1.58369
G01 X1.36310 Y1.58628
G01 X1.36210 Y1.58933
G01 X1.36144 Y1.59205
G01 X1.36092 Y1.59521
G01 X1.36068 Y1.59800
G01 X1.36065 Y1.60120
G01 X1.36088 Y1.60439
G01 X1.36136 Y1.60756
G01 X1.36257 Y1.61220
G01 X1.36433 Y1.61667
G01 X1.36663 Y1.62088
G01 X1.36942 Y1.62479
G01 X1.37266 Y1.62833
G01 X1.37631 Y1.63145
G01 X1.38031 Y1.63410
G01 X1.38461 Y1.63624
G01 X1.38914 Y1.63784
G01 X1.39382 Y1.63888
G01 X1.39860 Y1.63935
G01 X1.40340 Y1.63922
G01 X1.40815 Y1.63852
G01 X1.41277 Y1.63724
G01 X1.41721 Y1.63541
G01 X1.42139 Y1.63305
G01 X1.42525 Y1.63020
G01 X1.42874 Y1.62690
G01 X1.43204 Y1.62288
G01 X1.43458 Y1.61881
G01 X1.43662 Y1.61446
G01 X1.43820 Y1.60951
G01 X1.43908 Y1.60479
G01 X1.43937 Y1.59960
G01 X1.43903 Y1.59481
G01 X1.43800 Y1.58971
G01 X1.43632 Y1.58479
G01 X1.43399 Y1.58014
G01 X1.43132 Y1.57615
G01 X1.42791 Y1.57223
G01 X1.42401 Y1.56880
G01 X1.41969 Y1.56590
G01 X1.41969 Y1.40000
G01 X1.41929 Y1.39606
G01 X1.41826 Y1.39265
G01 X1.41724 Y1.39050
G01 X1.41574 Y1.38817
G01 X1.41420 Y1.38636
G01 X1.41214 Y1.38450
G01 X1.40984 Y1.38295
G01 X1.40735 Y1.38174
G01 X1.40509 Y1.38098
G01 X1.40237 Y1.38046
G01 X1.40000 Y1.38031
G01 X1.31968 Y1.38031
G01 X1.31968 Y1.33410
G01 X1.32401 Y1.33120
G01 X1.32791 Y1.32777
G01 X1.33133 Y1.32385
G01 X1.33420 Y1.31951
G01 X1.33631 Y1.31520
G01 X1.33800 Y1.31029
G01 X1.33903 Y1.30519
G01 X1.33937 Y1.30000
G01 X1.33903 Y1.29481
G01 X1.33800 Y1.28971
G01 X1.33647 Y1.28516
G01 X1.33420 Y1.28049
G01 X1.33133 Y1.27615
G01 X1.32791 Y1.27223
G01 X1.32401 Y1.26880
G01 X1.31968 Y1.26590
G01 X1.31968 Y0.90000
G01 X1.31954 Y0.89763
G01 X1.31911 Y0.89529
G01 X1.31841 Y0.89302
G01 X1.31761 Y0.89120
G01 X1.31620 Y0.88882
G01 X1.31473 Y0.88695
G01 X1.31275 Y0.88501
G01 X1.31052 Y0.88336
G01 X1.30844 Y0.88221
G01 X1.30586 Y0.88121
G01 X1.30316 Y0.88057
G01 X1.30040 Y0.88032
G01 X0.93409 Y0.88031
G01 X0.93132 Y0.87615
G01 X0.92791 Y0.87223
G01 X0.92401 Y0.86880
G01 X0.91968 Y0.86590
G01 X0.91968 Y0.63409
G01 X0.92432 Y0.63096
G01 X0.92646 Y0.62915
G01 X0.92874 Y0.62690
G01 X0.93083 Y0.62448
G01 X0.93399 Y0.61986
G01 X0.93549 Y0.61703
G01 X0.93662 Y0.61446
G01 X0.93767 Y0.61144
G01 X0.93839 Y0.60873
G01 X0.93897 Y0.60558
G01 X0.93927 Y0.60280
G01 X0.93937 Y0.59960
G01 X0.93924 Y0.59680
G01 X0.93885 Y0.59362
G01 X0.93790 Y0.58933
G01 X0.93632 Y0.58479
G01 X0.93439 Y0.58084
G01 X0.93180 Y0.57679
G01 X0.92902 Y0.57339
G01 X0.92556 Y0.57006
G01 X0.92206 Y0.56739
G01 X0.91793 Y0.56495
G01 X0.91390 Y0.56317
G01 X0.90932 Y0.56175
G01 X0.90499 Y0.56095
G01 X0.90020 Y0.56063
G01 X0.89541 Y0.56090
G01 X0.89107 Y0.56166
G01 X0.88685 Y0.56289
G01 X0.88243 Y0.56477
G01 X0.87794 Y0.56739
G01 X0.87354 Y0.57085
G01 X0.86993 Y0.57459
G01 X0.86663 Y0.57911
G01 X0.86416 Y0.58369
G01 X0.86233 Y0.58856
G01 X0.86115 Y0.59362
G01 X0.86064 Y0.59920
G04 P0 ( dwell for no time -- G64 should not smooth over this point )
G00 Z0.19685 ( retract )

G00 X0.46063 Y1.20040 ( rapid move to begin. )
G01 F2.36220
( Mill infeed pass 1/1 )
G01 Z-0.02362
G04 P0 ( dwell for no time -- G64 should not smooth over this point )
G01 F4.72441
G01 X0.46063 Y1.20040
G01 X0.46092 Y1.19521
G01 X0.46189 Y1.19010
G01 X0.46353 Y1.18517
G01 X0.46580 Y1.18049
G01 X0.46867 Y1.17615
G01 X0.47209 Y1.17223
G01 X0.47599 Y1.16880
G01 X0.48031 Y1.16590
G01 X0.48498 Y1.16361
G01 X0.48952 Y1.16205
G01 X0.49461 Y1.16100
G01 X0.49740 Y1.16071
G01 X0.50060 Y1.16063
G01 X0.50618 Y1.16112
G01 X0.51163 Y1.16239
G01 X0.51465 Y1.16346
G01 X0.51968 Y1.16590
G01 X0.52239 Y1.16762
G01 X0.52676 Y1.17112
G01 X0.52902 Y1.17339
G01 X0.53083 Y1.17552
G01 X0.53250 Y1.17777
G01 X0.53409 Y1.18031
G01 X0.78031 Y1.18031
G01 X0.78032 Y0.49960
G01 X0.78046 Y0.49763
G01 X0.78089 Y0.49529
G01 X0.78159 Y0.49302
G01 X0.78239 Y0.49120
G01 X0.78358 Y0.48915
G01 X0.78475 Y0.48755
G01 X0.78636 Y0.48580
G01 X0.78786 Y0.48450
G01 X0.79050 Y0.48276
G01 X0.79302 Y0.48159
G01 X0.79606 Y0.48071
G01 X0.79881 Y0.48035
G01 X0.86591 Y0.48031
G01 X0.86867 Y0.47615
G01 X0.87209 Y0.47223
G01 X0.87599 Y0.46880
G01 X0.88031 Y0.46590
G01 X0.88498 Y0.46361
G01 X0.88991 Y0.46194
G01 X0.89501 Y0.46095
G01 X0.90020 Y0.46063
G01 X0.90539 Y0.46100
G01 X0.91009 Y0.46194
G01 X0.91502 Y0.46361
G01 X0.91968 Y0.46590
G01 X0.92401 Y0.46880
G01 X0.92791 Y0.47223
G01 X0.93132 Y0.47615
G01 X0.93409 Y0.48031
G01 X1.40040 Y0.48032
G01 X1.40277 Y0.48051
G01 X1.40471 Y0.48089
G01 X1.40698 Y0.48159
G01 X1.40880 Y0.48239
G01 X1.41214 Y0.48450
G01 X1.41392 Y0.48608
G01 X1.41525 Y0.48755
G01 X1.41685 Y0.48982
G01 X1.41826 Y0.49265
G01 X1.41920 Y0.49567
G01 X1.41965 Y0.49881
G01 X1.41969 Y0.56590
G01 X1.42432 Y0.56904
G01 X1.42847 Y0.57281
G01 X1.43204 Y0.57712
G01 X1.43477 Y0.58154
G01 X1.43704 Y0.58666
G01 X1.43856 Y0.59205
G01 X1.43930 Y0.59760
G01 X1.43924 Y0.60320
G01 X1.43878 Y0.60677
G01 X1.43800 Y0.61029
G01 X1.43690 Y0.61372
G01 X1.43549 Y0.61703
G01 X1.43379 Y0.62020
G01 X1.43180 Y0.62321
G01 X1.42955 Y0.62601
G01 X1.42734 Y0.62833
G01 X1.42464 Y0.63071
G01 X1.42173 Y0.63283
G01 X1.41899 Y0.63449
G01 X1.41576 Y0.63608
G01 X1.41239 Y0.63737
G01 X1.40893 Y0.63834
G01 X1.40539 Y0.63900
G01 X1.40220 Y0.63931
G01 X1.39860 Y0.63935
G01 X1.39501 Y0.63905
G01 X1.39146 Y0.63843
G01 X1.38799 Y0.63749
G01 X1.38461 Y0.63624
G01 X1.38172 Y0.63487
G01 X1.37861 Y0.63305
G01 X1.37568 Y0.63096
G01 X1.37295 Y0.62861
G01 X1.37045 Y0.62601
G01 X1.36820 Y0.62321
G01 X1.36641 Y0.62055
G01 X1.36468 Y0.61739
G01 X1.36324 Y0.61409
G01 X1.36210 Y0.61067
G01 X1.36129 Y0.60716
G01 X1.36083 Y0.60399
G01 X1.36065 Y0.60120
G01 X1.36068 Y0.59800
G01 X1.36097 Y0.59481
G01 X1.36152 Y0.59166
G01 X1.36221 Y0.58894
G01 X1.36324 Y0.58591
G01 X1.36433 Y0.58333
G01 X1.36580 Y0.58049
G01 X1.36728 Y0.57811
G01 X1.36916 Y0.57552
G01 X1.37098 Y0.57339
G01 X1.37295 Y0.57139
G01 X1.37536 Y0.56929
G01 X1.37794 Y0.56739
G01 X1.38031 Y0.56590
G01 X1.38031 Y0.51968
G01 X0.93409 Y0.51968
G01 X0.93132 Y0.52385
G01 X0.92791 Y0.52777
G01 X0.92401 Y0.53120
G01 X0.91968 Y0.53409
G01 X0.91502 Y0.53639
G01 X0.91009 Y0.53805
G01 X0.90499 Y0.53905
G01 X0.89980 Y0.53937
G01 X0.89461 Y0.53900
G01 X0.88952 Y0.53795
G01 X0.88498 Y0.53639
G01 X0.88031 Y0.53409
G01 X0.87599 Y0.53120
G01 X0.87209 Y0.52777
G01 X0.86867 Y0.52385
G01 X0.86591 Y0.51968
G01 X0.81968 Y0.51968
G01 X0.81968 Y1.18031
G01 X1.20000 Y1.18031
G01 X1.20355 Y1.18064
G01 X1.20698 Y1.18159
G01 X1.20950 Y1.18276
G01 X1.21182 Y1.18426
G01 X1.21392 Y1.18608
G01 X1.21549 Y1.18786
G01 X1.21685 Y1.18982
G01 X1.21811 Y1.19228
G01 X1.21901 Y1.19491
G01 X1.21949 Y1.19723
G01 X1.21968 Y1.20000
G01 X1.21968 Y1.26590
G01 X1.22369 Y1.26855
G01 X1.22705 Y1.27139
G01 X1.23033 Y1.27490
G01 X1.23294 Y1.27844
G01 X1.23532 Y1.28261
G01 X1.23704 Y1.28666
G01 X1.23839 Y1.29127
G01 X1.23912 Y1.29561
G01 X1.23936 Y1.30080
G01 X1.23897 Y1.30558
G01 X1.23790 Y1.31067
G01 X1.23632 Y1.31520
G01 X1.23419 Y1.31951
G01 X1.23133 Y1.32385
G01 X1.22819 Y1.32748
G01 X1.22432 Y1.33096
G01 X1.22037 Y1.33369
G01 X1.21649 Y1.33575
G01 X1.21201 Y1.33749
G01 X1.20775 Y1.33860
G01 X1.20300 Y1.33926
G01 X1.19860 Y1.33935
G01 X1.19382 Y1.33888
G01 X1.18952 Y1.33795
G01 X1.18498 Y1.33639
G01 X1.18101 Y1.33449
G01 X1.17696 Y1.33192
G01 X1.17354 Y1.32915
G01 X1.17019 Y1.32571
G01 X1.16750 Y1.32222
G01 X1.16522 Y1.31846
G01 X1.16338 Y1.31446
G01 X1.16221 Y1.31106
G01 X1.16136 Y1.30756
G01 X1.16083 Y1.30400
G01 X1.16064 Y1.30080
G01 X1.16070 Y1.29760
G01 X1.16109 Y1.29402
G01 X1.16180 Y1.29049
G01 X1.16282 Y1.28704
G01 X1.16416 Y1.28369
G01 X1.16580 Y1.28049
G01 X1.16773 Y1.27744
G01 X1.16967 Y1.27490
G01 X1.17209 Y1.27223
G01 X1.17474 Y1.26980
G01 X1.17761 Y1.26762
G01 X1.18031 Y1.26590
G01 X1.18031 Y1.21968
G01 X0.53409 Y1.21968
G01 X0.53133 Y1.22385
G01 X0.52791 Y1.22777
G01 X0.52401 Y1.23120
G01 X0.51968 Y1.23409
G01 X0.51502 Y1.23639
G01 X0.51009 Y1.23805
G01 X0.50499 Y1.23905
G01 X0.50020 Y1.23937
G01 X0.49580 Y1.23914
G01 X0.49146 Y1.23843
G01 X0.48685 Y1.23711
G01 X0.48279 Y1.23541
G01 X0.47895 Y1.23327
G01 X0.47536 Y1.23071
G01 X0.47181 Y1.22748
G01 X0.46892 Y1.22416
G01 X0.46601 Y1.21986
G01 X0.46368 Y1.21520
G01 X0.46200 Y1.21029
G01 X0.46103 Y1.20558
G01 X0.46063 Y1.20040
G01 X0.46063 Y1.40000
G01 X0.46097 Y1.40519
G01 X0.46200 Y1.41029
G01 X0.46368 Y1.41520
G01 X0.46601 Y1.41986
G01 X0.46892 Y1.42416
G01 X0.47209 Y1.42777
G01 X0.47599 Y1.43120
G01 X0.48031 Y1.43409
G01 X0.48031 Y1.90000
G01 X0.48046 Y1.90237
G01 X0.48089 Y1.90471
G01 X0.48159 Y1.90698
G01 X0.48276 Y1.90950
G01 X0.48403 Y1.91151
G01 X0.48580 Y1.91364
G01 X0.48755 Y1.91525
G01 X0.48982 Y1.91685
G01 X0.49192 Y1.91795
G01 X0.49452 Y1.91891
G01 X0.49723 Y1.91949
G01 X0.49960 Y1.91968
G01 X0.86591 Y1.91969
G01 X0.86867 Y1.92385
G01 X0.87209 Y1.92777
G01 X0.87568 Y1.93096
G01 X0.87997 Y1.93389
G01 X0.88424 Y1.93608
G01 X0.88914 Y1.93784
G01 X0.89422 Y1.93894
G01 X0.89940 Y1.93937
G01 X0.90459 Y1.93910
G01 X0.90970 Y1.93815
G01 X0.91465 Y1.93654
G01 X0.91934 Y1.93429
G01 X0.92369 Y1.93145
G01 X0.92763 Y1.92805
G01 X0.93108 Y1.92416
G01 X0.93409 Y1.91969
G01 X1.18031 Y1.91969
G01 X1.18031 Y2.00000
G01 X1.18046 Y2.00237
G01 X1.18089 Y2.00471
G01 X1.18159 Y2.00698
G01 X1.18257 Y2.00915
G01 X1.18403 Y2.01151
G01 X1.18553 Y2.01335
G01 X1.18725 Y2.01499
G01 X1.18915 Y2.01642
G01 X1.19156 Y2.01778
G01 X1.19529 Y2.01911
G01 X1.19723 Y2.01949
G01 X1.19960 Y2.01968
G01 X1.36590 Y2.01968
G01 X1.36796 Y2.02288
G01 X1.37045 Y2.02601
G01 X1.37295 Y2.02861
G01 X1.37599 Y2.03120
G01 X1.37895 Y2.03327
G01 X1.38243 Y2.03523
G01 X1.38572 Y2.03669
G01 X1.38952 Y2.03795
G01 X1.39343 Y2.03882
G01 X1.39700 Y2.03925
G01 X1.40060 Y2.03937
G01 X1.40459 Y2.03910
G01 X1.40815 Y2.03852
G01 X1.41201 Y2.03749
G01 X1.41539 Y2.03624
G01 X1.41899 Y2.03449
G01 X1.42139 Y2.03305
G01 X1.42401 Y2.03120
G01 X1.42819 Y2.02748
G01 X1.43033 Y2.02510
G01 X1.43204 Y2.02288
G01 X1.43496 Y2.01810
G01 X1.43717 Y2.01296
G01 X1.43800 Y2.01029
G01 X1.43871 Y2.00716
G01 X1.43917 Y2.00400
G01 X1.43935 Y2.00120
G01 X1.43934 Y1.99840
G01 X1.43908 Y1.99521
G01 X1.43800 Y1.98971
G01 X1.43717 Y1.98704
G01 X1.43600 Y1.98406
G01 X1.43337 Y1.97911
G01 X1.43180 Y1.97679
G01 X1.42981 Y1.97429
G01 X1.42586 Y1.97032
G01 X1.42369 Y1.96855
G01 X1.42105 Y1.96673
G01 X1.41612 Y1.96408
G01 X1.41353 Y1.96303
G01 X1.41048 Y1.96205
G01 X1.40736 Y1.96132
G01 X1.40419 Y1.96085
G01 X1.40100 Y1.96064
G01 X1.39740 Y1.96071
G01 X1.39422 Y1.96106
G01 X1.39107 Y1.96165
G01 X1.38799 Y1.96251
G01 X1.38498 Y1.96361
G01 X1.38207 Y1.96495
G01 X1.37928 Y1.96652
G01 X1.37663 Y1.96831
G01 X1.37414 Y1.97032
G01 X1.37181 Y1.97252
G01 X1.36967 Y1.97490
G01 X1.36773 Y1.97744
G01 X1.36590 Y1.98031
G01 X1.21968 Y1.98031
G01 X1.21968 Y1.71968
G01 X1.60040 Y1.71968
G01 X1.60433 Y1.71920
G01 X1.60808 Y1.71795
G01 X1.61151 Y1.71597
G01 X1.61447 Y1.71335
G01 X1.61664 Y1.71052
G01 X1.61826 Y1.70735
G01 X1.61936 Y1.70355
G01 X1.61969 Y1.70000
G01 X1.61968 Y1.29960
G01 X1.61929 Y1.29606
G01 X1.61841 Y1.29302
G01 X1.61685 Y1.28982
G01 X1.61473 Y1.28695
G01 X1.61214 Y1.28450
G01 X1.60879 Y1.28239
G01 X1.60509 Y1.28099
G01 X1.60158 Y1.28038
G01 X1.53409 Y1.28031
G01 X1.53108 Y1.27584
G01 X1.52734 Y1.27167
G01 X1.52337 Y1.26831
G01 X1.51864 Y1.26532
G01 X1.51390 Y1.26317
G01 X1.50854 Y1.26157
G01 X1.50300 Y1.26074
G01 X1.49740 Y1.26072
G01 X1.49382 Y1.26112
G01 X1.49068 Y1.26175
G01 X1.48761 Y1.26263
G01 X1.48424 Y1.26392
G01 X1.48136 Y1.26532
G01 X1.47827 Y1.26717
G01 X1.47536 Y1.26929
G01 X1.47266 Y1.27167
G01 X1.47045 Y1.27398
G01 X1.46820 Y1.27679
G01 X1.46621 Y1.27980
G01 X1.46450 Y1.28297
G01 X1.46324 Y1.28591
G01 X1.46210 Y1.28933
G01 X1.46129 Y1.29283
G01 X1.46079 Y1.29640
G01 X1.46063 Y1.30000
G01 X1.46079 Y1.30360
G01 X1.46129 Y1.30716
G01 X1.46210 Y1.31067
G01 X1.46324 Y1.31409
G01 X1.46468 Y1.31739
G01 X1.46642 Y1.32055
G01 X1.46843 Y1.32353
G01 X1.47071 Y1.32631
G01 X1.47354 Y1.32915
G01 X1.47631 Y1.33145
G01 X1.47928 Y1.33348
G01 X1.48243 Y1.33523
G01 X1.48572 Y1.33669
G01 X1.48914 Y1.33784
G01 X1.49264 Y1.33868
G01 X1.49541 Y1.33910
G01 X1.49860 Y1.33935
G01 X1.50180 Y1.33933
G01 X1.50499 Y1.33905
G01 X1.50775 Y1.33860
G01 X1.51086 Y1.33784
G01 X1.51353 Y1.33697
G01 X1.51649 Y1.33575
G01 X1.51934 Y1.33429
G01 X1.52173 Y1.33283
G01 X1.52401 Y1.33120
G01 X1.52646 Y1.32915
G01 X1.52874 Y1.32690
G01 X1.53058 Y1.32479
G01 X1.53250 Y1.32222
G01 X1.53409 Y1.31968
G01 X1.58031 Y1.31968
G01 X1.58031 Y1.68031
G01 X1.21968 Y1.68031
G01 X1.21968 Y1.63410
G01 X1.22239 Y1.63238
G01 X1.22525 Y1.63020
G01 X1.22762 Y1.62805
G01 X1.22981 Y1.62571
G01 X1.23180 Y1.62321
G01 X1.23379 Y1.62020
G01 X1.23532 Y1.61739
G01 X1.23676 Y1.61409
G01 X1.23778 Y1.61106
G01 X1.23856 Y1.60795
G01 X1.23908 Y1.60479
G01 X1.23935 Y1.60120
G01 X1.23930 Y1.59760
G01 X1.23897 Y1.59441
G01 X1.23830 Y1.59088
G01 X1.23743 Y1.58780
G01 X1.23600 Y1.58406
G01 X1.23399 Y1.58014
G01 X1.23157 Y1.57647
G01 X1.22901 Y1.57339
G01 X1.22616 Y1.57058
G01 X1.22272 Y1.56784
G01 X1.21934 Y1.56571
G01 X1.21539 Y1.56376
G01 X1.21163 Y1.56239
G01 X1.20736 Y1.56132
G01 X1.20340 Y1.56078
G01 X1.19900 Y1.56064
G01 X1.19501 Y1.56095
G01 X1.19068 Y1.56175
G01 X1.18647 Y1.56303
G01 X1.18243 Y1.56477
G01 X1.17794 Y1.56739
G01 X1.17354 Y1.57085
G01 X1.16993 Y1.57459
G01 X1.16663 Y1.57911
G01 X1.16416 Y1.58369
G01 X1.16221 Y1.58894
G01 X1.16109 Y1.59402
G01 X1.16063 Y1.59960
G01 X1.16092 Y1.60479
G01 X1.16189 Y1.60990
G01 X1.16353 Y1.61483
G01 X1.16580 Y1.61951
G01 X1.16867 Y1.62385
G01 X1.17209 Y1.62777
G01 X1.17599 Y1.63120
G01 X1.18031 Y1.63410
G01 X1.18031 Y1.88031
G01 X0.93409 Y1.88031
G01 X0.93132 Y1.87615
G01 X0.92791 Y1.87223
G01 X0.92401 Y1.86880
G01 X0.91968 Y1.86590
G01 X0.91539 Y1.86376
G01 X0.91048 Y1.86205
G01 X0.90539 Y1.86100
G01 X0.90020 Y1.86063
G01 X0.89501 Y1.86095
G01 X0.88991 Y1.86194
G01 X0.88498 Y1.86361
G01 X0.88031 Y1.86590
G01 X0.87599 Y1.86880
G01 X0.87209 Y1.87223
G01 X0.86867 Y1.87615
G01 X0.86591 Y1.88031
G01 X0.51968 Y1.88031
G01 X0.51968 Y1.43409
G01 X0.52401 Y1.43120
G01 X0.52819 Y1.42748
G01 X0.53180 Y1.42321
G01 X0.53477 Y1.41846
G01 X0.53704 Y1.41334
G01 X0.53848 Y1.40834
G01 X0.53927 Y1.40280
G01 X0.53927 Y1.39720
G01 X0.53864 Y1.39244
G01 X0.53743 Y1.38779
G01 X0.53550 Y1.38297
G01 X0.53316 Y1.37878
G01 X0.53007 Y1.37459
G01 X0.52676 Y1.37112
G01 X0.52304 Y1.36808
G01 X0.51864 Y1.36532
G01 X0.51428 Y1.36331
G01 X0.50970 Y1.36184
G01 X0.50499 Y1.36095
G01 X0.49980 Y1.36063
G01 X0.49501 Y1.36095
G01 X0.49029 Y1.36184
G01 X0.48535 Y1.36346
G01 X0.48101 Y1.36551
G01 X0.47663 Y1.36831
G01 X0.47266 Y1.37167
G01 X0.46916 Y1.37552
G01 X0.46621 Y1.37980
G01 X0.46384 Y1.38443
G01 X0.46210 Y1.38933
G01 X0.46097 Y1.39481
G01 X0.46063 Y1.40000
G04 P0 ( dwell for no time -- G64 should not smooth over this point )
G00 Z0.19685 ( retract )

G00 X0.76063 Y1.30000 ( rapid move to begin. )
G01 F2.36220
( Mill infeed pass 1/1 )
G01 Z-0.02362
G04 P0 ( dwell for no time -- G64 should not smooth over this point )
G01 F4.72441
G01 X0.76063 Y1.30000
G01 X0.76079 Y1.30360
G01 X0.76136 Y1.30756
G01 X0.76233 Y1.31144
G01 X0.76368 Y1.31520
G01 X0.76523 Y1.31846
G01 X0.76728 Y1.32189
G01 X0.76942 Y1.32479
G01 X0.77209 Y1.32777
G01 X0.77474 Y1.33020
G01 X0.77794 Y1.33261
G01 X0.78101 Y1.33449
G01 X0.78461 Y1.33624
G01 X0.78799 Y1.33749
G01 X0.79185 Y1.33852
G01 X0.79580 Y1.33915
G01 X0.79980 Y1.33937
G01 X0.80340 Y1.33922
G01 X0.80736 Y1.33868
G01 X0.81086 Y1.33784
G01 X0.81465 Y1.33654
G01 X0.81793 Y1.33505
G01 X0.82139 Y1.33305
G01 X0.82464 Y1.33071
G01 X0.82763 Y1.32805
G01 X0.83007 Y1.32541
G01 X0.83250 Y1.32222
G01 X0.83458 Y1.31881
G01 X0.83632 Y1.31520
G01 X0.83767 Y1.31144
G01 X0.83864 Y1.30756
G01 X0.83917 Y1.30400
G01 X0.83937 Y1.30000
G01 X0.83920 Y1.29640
G01 X0.83864 Y1.29244
G01 X0.83767 Y1.28856
G01 X0.83632 Y1.28479
G01 X0.83477 Y1.28154
G01 X0.83272 Y1.27811
G01 X0.83058 Y1.27521
G01 X0.82791 Y1.27223
G01 X0.82525 Y1.26980
G01 X0.82206 Y1.26739
G01 X0.81899 Y1.26551
G01 X0.81539 Y1.26376
G01 X0.81201 Y1.26251
G01 X0.80815 Y1.26148
G01 X0.80419 Y1.26085
G01 X0.80020 Y1.26063
G01 X0.79660 Y1.26078
G01 X0.79264 Y1.26132
G01 X0.78914 Y1.26216
G01 X0.78535 Y1.26346
G01 X0.78207 Y1.26495
G01 X0.77861 Y1.26695
G01 X0.77536 Y1.26929
G01 X0.77237 Y1.27195
G01 X0.76993 Y1.27459
G01 X0.76750 Y1.27777
G01 X0.76541 Y1.28119
G01 X0.76368 Y1.28479
G01 X0.76233 Y1.28856
G01 X0.76136 Y1.29244
G01 X0.76083 Y1.29600
G01 X0.76063 Y1.30000
G04 P0 ( dwell for no time -- G64 should not smooth over this point )
G00 Z0.19685 ( retract )

G00 X0.78031 Y1.30020 ( rapid move to begin. )
G01 F2.36220
( Mill infeed pass 1/1 )
G01 Z-0.02362
G04 P0 ( dwell for no time -- G64 should not smooth over this point )
G01 F4.72441
G01 X0.78031 Y1.30020
G01 X0.78044 Y1.30220
G01 X0.78076 Y1.30417
G01 X0.78128 Y1.30610
G01 X0.78200 Y1.30797
G01 X0.78290 Y1.30976
G01 X0.78398 Y1.31144
G01 X0.78633 Y1.31416
G01 X0.78784 Y1.31548
G01 X0.78947 Y1.31663
G01 X0.79122 Y1.31762
G01 X0.79305 Y1.31842
G01 X0.79495 Y1.31903
G01 X0.79691 Y1.31944
G01 X0.80050 Y1.31968
G01 X0.80249 Y1.31953
G01 X0.80446 Y1.31917
G01 X0.80788 Y1.31804
G01 X0.80967 Y1.31715
G01 X0.81136 Y1.31608
G01 X0.81410 Y1.31374
G01 X0.81542 Y1.31224
G01 X0.81658 Y1.31061
G01 X0.81757 Y1.30887
G01 X0.81838 Y1.30705
G01 X0.81936 Y1.30358
G01 X0.81962 Y1.30160
G01 X0.81968 Y1.29960
G01 X0.81928 Y1.29602
G01 X0.81878 Y1.29409
G01 X0.81808 Y1.29221
G01 X0.81720 Y1.29042
G01 X0.81613 Y1.28872
G01 X0.81491 Y1.28714
G01 X0.81352 Y1.28570
G01 X0.81200 Y1.28440
G01 X0.81036 Y1.28326
G01 X0.80714 Y1.28165
G01 X0.80524 Y1.28103
G01 X0.80329 Y1.28059
G01 X0.79970 Y1.28032
G01 X0.79770 Y1.28045
G01 X0.79573 Y1.28078
G01 X0.79231 Y1.28188
G01 X0.79051 Y1.28276
G01 X0.78880 Y1.28381
G01 X0.78604 Y1.28611
G01 X0.78471 Y1.28760
G01 X0.78353 Y1.28922
G01 X0.78252 Y1.29095
G01 X0.78169 Y1.29277
G01 X0.78105 Y1.29466
G01 X0.78061 Y1.29661
G01 X0.78031 Y1.30020
G04 P0 ( dwell for no time -- G64 should not smooth over this point )
G00 Z0.19685 ( retract )

G00 X0.86065 Y1.49880 ( rapid move to begin. )
G01 F2.36220
( Mill infeed pass 1/1 )
G01 Z-0.02362
G04 P0 ( dwell for no time -- G64 should not smooth over this point )
G01 F4.72441
G01 X0.86065 Y1.49880
G01 X0.86079 Y1.50360
G01 X0.86152 Y1.50834
G01 X0.86282 Y1.51296
G01 X0.86468 Y1.51739
G01 X0.86728 Y1.52189
G01 X0.87019 Y1.52571
G01 X0.87354 Y1.52915
G01 X0.87728 Y1.53215
G01 X0.88066 Y1.53429
G01 X0.88424 Y1.53608
G01 X0.88799 Y1.53749
G01 X0.89224 Y1.53860
G01 X0.89620 Y1.53919
G01 X0.90060 Y1.53937
G01 X0.90459 Y1.53910
G01 X0.90854 Y1.53843
G01 X0.91239 Y1.53737
G01 X0.91612 Y1.53592
G01 X0.91968 Y1.53409
G01 X0.92337 Y1.53168
G01 X0.92646 Y1.52915
G01 X0.92928 Y1.52631
G01 X0.93180 Y1.52320
G01 X0.93409 Y1.51968
G01 X1.28031 Y1.51968
G01 X1.28031 Y1.56590
G01 X1.27631 Y1.56855
G01 X1.27295 Y1.57139
G01 X1.26993 Y1.57459
G01 X1.26728 Y1.57811
G01 X1.26504 Y1.58189
G01 X1.26324 Y1.58591
G01 X1.26189 Y1.59010
G01 X1.26097 Y1.59481
G01 X1.26068 Y1.59800
G01 X1.26065 Y1.60120
G01 X1.26092 Y1.60479
G01 X1.26144 Y1.60795
G01 X1.26221 Y1.61106
G01 X1.26338 Y1.61446
G01 X1.26468 Y1.61739
G01 X1.26642 Y1.62054
G01 X1.26967 Y1.62510
G01 X1.27354 Y1.62915
G01 X1.27794 Y1.63261
G01 X1.28279 Y1.63541
G01 X1.28799 Y1.63749
G01 X1.29343 Y1.63882
G01 X1.29900 Y1.63936
G01 X1.30459 Y1.63910
G01 X1.31009 Y1.63805
G01 X1.31539 Y1.63624
G01 X1.32037 Y1.63369
G01 X1.32495 Y1.63046
G01 X1.32902 Y1.62661
G01 X1.33250 Y1.62223
G01 X1.33532 Y1.61739
G01 X1.33743 Y1.61220
G01 X1.33830 Y1.60912
G01 X1.33891 Y1.60598
G01 X1.33930 Y1.60240
G01 X1.33936 Y1.59920
G01 X1.33917 Y1.59600
G01 X1.33864 Y1.59244
G01 X1.33779 Y1.58894
G01 X1.33676 Y1.58591
G01 X1.33550 Y1.58297
G01 X1.33379 Y1.57980
G01 X1.33204 Y1.57712
G01 X1.32981 Y1.57429
G01 X1.32763 Y1.57195
G01 X1.32526 Y1.56980
G01 X1.32239 Y1.56762
G01 X1.31968 Y1.56590
G01 X1.31968 Y1.50000
G01 X1.31954 Y1.49763
G01 X1.31911 Y1.49529
G01 X1.31841 Y1.49302
G01 X1.31743 Y1.49085
G01 X1.31620 Y1.48882
G01 X1.31447 Y1.48665
G01 X1.31275 Y1.48500
G01 X1.31085 Y1.48358
G01 X1.30879 Y1.48239
G01 X1.30623 Y1.48133
G01 X1.30316 Y1.48057
G01 X1.30000 Y1.48031
G01 X0.93409 Y1.48031
G01 X0.93132 Y1.47615
G01 X0.92791 Y1.47223
G01 X0.92401 Y1.46880
G01 X0.91968 Y1.46590
G01 X0.91968 Y1.31968
G01 X0.96591 Y1.31968
G01 X0.96750 Y1.32222
G01 X0.96942 Y1.32479
G01 X0.97153 Y1.32719
G01 X0.97384 Y1.32942
G01 X0.97631 Y1.33145
G01 X0.97894 Y1.33327
G01 X0.98172 Y1.33487
G01 X0.98461 Y1.33624
G01 X0.98760 Y1.33737
G01 X0.99068 Y1.33825
G01 X0.99382 Y1.33888
G01 X0.99700 Y1.33926
G01 X1.00020 Y1.33937
G01 X1.00340 Y1.33922
G01 X1.00657 Y1.33882
G01 X1.00971 Y1.33815
G01 X1.01353 Y1.33697
G01 X1.01685 Y1.33558
G01 X1.02003 Y1.33389
G01 X1.02337 Y1.33169
G01 X1.02646 Y1.32915
G01 X1.02902 Y1.32661
G01 X1.03157 Y1.32353
G01 X1.03379 Y1.32020
G01 X1.03567 Y1.31667
G01 X1.03717 Y1.31296
G01 X1.03820 Y1.30951
G01 X1.03897 Y1.30558
G01 X1.03932 Y1.30200
G01 X1.03932 Y1.29800
G01 X1.03891 Y1.29402
G01 X1.03811 Y1.29010
G01 X1.03717 Y1.28704
G01 X1.03600 Y1.28406
G01 X1.03458 Y1.28119
G01 X1.03294 Y1.27844
G01 X1.03108 Y1.27584
G01 X1.02902 Y1.27339
G01 X1.02676 Y1.27112
G01 X1.02432 Y1.26904
G01 X1.02173 Y1.26717
G01 X1.01899 Y1.26551
G01 X1.01612 Y1.26408
G01 X1.01315 Y1.26289
G01 X1.01009 Y1.26195
G01 X1.00697 Y1.26125
G01 X1.00379 Y1.26081
G01 X1.00060 Y1.26063
G01 X0.99541 Y1.26090
G01 X0.99029 Y1.26185
G01 X0.98535 Y1.26346
G01 X0.98066 Y1.26571
G01 X0.97631 Y1.26855
G01 X0.97237 Y1.27195
G01 X0.96892 Y1.27584
G01 X0.96591 Y1.28031
G01 X0.89802 Y1.28041
G01 X0.89606 Y1.28071
G01 X0.89377 Y1.28133
G01 X0.89016 Y1.28295
G01 X0.88695 Y1.28527
G01 X0.88553 Y1.28665
G01 X0.88403 Y1.28849
G01 X0.88257 Y1.29085
G01 X0.88133 Y1.29377
G01 X0.88064 Y1.29645
G01 X0.88032 Y1.29960
G01 X0.88031 Y1.46590
G01 X0.87631 Y1.46855
G01 X0.87237 Y1.47195
G01 X0.86892 Y1.47584
G01 X0.86621 Y1.47980
G01 X0.86384 Y1.48443
G01 X0.86221 Y1.48894
G01 X0.86115 Y1.49362
G01 X0.86065 Y1.49880
G04 P0 ( dwell for no time -- G64 should not smooth over this point )
G00 Z0.19685 ( retract )

G00 X1.76063 Y2.00000 ( rapid move to begin. )
G01 F2.36220
( Mill infeed pass 1/1 )
G01 Z-0.02362
G04 P0 ( dwell for no time -- G64 should not smooth over this point )
G01 F4.72441
G01 X1.76063 Y2.00000
G01 X1.76097 Y1.99481
G01 X1.76200 Y1.98971
G01 X1.76368 Y1.98480
G01 X1.76580 Y1.98049
G01 X1.76867 Y1.97615
G01 X1.77209 Y1.97223
G01 X1.77599 Y1.96880
G01 X1.78031 Y1.96590
G01 X1.78031 Y1.63410
G01 X1.77568 Y1.63096
G01 X1.77153 Y1.62719
G01 X1.76796 Y1.62288
G01 X1.76504 Y1.61810
G01 X1.76283 Y1.61296
G01 X1.76136 Y1.60756
G01 X1.76068 Y1.60200
G01 X1.76076 Y1.59680
G01 X1.76122 Y1.59323
G01 X1.76200 Y1.58971
G01 X1.76310 Y1.58628
G01 X1.76450 Y1.58297
G01 X1.76621 Y1.57980
G01 X1.76820 Y1.57679
G01 X1.77045 Y1.57398
G01 X1.77266 Y1.57167
G01 X1.77536 Y1.56929
G01 X1.77827 Y1.56717
G01 X1.78136 Y1.56532
G01 X1.78424 Y1.56392
G01 X1.78761 Y1.56263
G01 X1.79107 Y1.56166
G01 X1.79461 Y1.56100
G01 X1.79780 Y1.56069
G01 X1.80180 Y1.56067
G01 X1.80578 Y1.56106
G01 X1.80970 Y1.56184
G01 X1.81353 Y1.56303
G01 X1.81721 Y1.56459
G01 X1.82072 Y1.56652
G01 X1.82401 Y1.56880
G01 X1.82705 Y1.57139
G01 X1.82981 Y1.57429
G01 X1.83227 Y1.57744
G01 X1.83439 Y1.58084
G01 X1.83616 Y1.58443
G01 X1.83755 Y1.58818
G01 X1.83856 Y1.59205
G01 X1.83917 Y1.59600
G01 X1.83937 Y1.60000
G01 X1.83903 Y1.60519
G01 X1.83800 Y1.61029
G01 X1.83631 Y1.61520
G01 X1.83420 Y1.61951
G01 X1.83133 Y1.62385
G01 X1.82791 Y1.62777
G01 X1.82401 Y1.63120
G01 X1.81968 Y1.63410
G01 X1.81968 Y1.96590
G01 X1.82432 Y1.96904
G01 X1.82847 Y1.97280
G01 X1.83204 Y1.97712
G01 X1.83496 Y1.98189
G01 X1.83717 Y1.98704
G01 X1.83864 Y1.99244
G01 X1.83932 Y1.99800
G01 X1.83920 Y2.00360
G01 X1.83864 Y2.00756
G01 X1.83779 Y2.01106
G01 X1.83662 Y2.01446
G01 X1.83514 Y2.01775
G01 X1.83337 Y2.02088
G01 X1.83133 Y2.02385
G01 X1.82902 Y2.02661
G01 X1.82646 Y2.02915
G01 X1.82369 Y2.03145
G01 X1.82072 Y2.03348
G01 X1.81757 Y2.03523
G01 X1.81428 Y2.03669
G01 X1.81086 Y2.03784
G01 X1.80736 Y2.03868
G01 X1.80380 Y2.03919
G01 X1.80020 Y2.03937
G01 X1.79620 Y2.03919
G01 X1.79264 Y2.03868
G01 X1.78875 Y2.03773
G01 X1.78498 Y2.03639
G01 X1.78136 Y2.03468
G01 X1.77827 Y2.03283
G01 X1.77505 Y2.03046
G01 X1.77237 Y2.02805
G01 X1.76967 Y2.02510
G01 X1.76750 Y2.02223
G01 X1.76541 Y2.01881
G01 X1.76368 Y2.01520
G01 X1.76233 Y2.01144
G01 X1.76136 Y2.00756
G01 X1.76079 Y2.00360
G01 X1.76063 Y2.00000
G04 P0 ( dwell for no time -- G64 should not smooth over this point )
G00 Z0.19685 ( retract )

G00 X1.46063 Y1.60000 ( rapid move to begin. )
G01 F2.36220
( Mill infeed pass 1/1 )
G01 Z-0.02362
G04 P0 ( dwell for no time -- G64 should not smooth over this point )
G01 F4.72441
G01 X1.46063 Y1.60000
G01 X1.46083 Y1.59600
G01 X1.46144 Y1.59205
G01 X1.46245 Y1.58818
G01 X1.46368 Y1.58479
G01 X1.46541 Y1.58119
G01 X1.46750 Y1.57777
G01 X1.46993 Y1.57459
G01 X1.47237 Y1.57195
G01 X1.47536 Y1.56929
G01 X1.47861 Y1.56695
G01 X1.48207 Y1.56495
G01 X1.48535 Y1.56346
G01 X1.48914 Y1.56216
G01 X1.49264 Y1.56132
G01 X1.49660 Y1.56078
G01 X1.50020 Y1.56063
G01 X1.50419 Y1.56085
G01 X1.50815 Y1.56148
G01 X1.51201 Y1.56251
G01 X1.51539 Y1.56376
G01 X1.51864 Y1.56532
G01 X1.52206 Y1.56739
G01 X1.52526 Y1.56980
G01 X1.52791 Y1.57223
G01 X1.53058 Y1.57521
G01 X1.53294 Y1.57844
G01 X1.53477 Y1.58154
G01 X1.53647 Y1.58516
G01 X1.53778 Y1.58894
G01 X1.53864 Y1.59244
G01 X1.53920 Y1.59640
G01 X1.53937 Y1.60000
G01 X1.53917 Y1.60400
G01 X1.53856 Y1.60795
G01 X1.53755 Y1.61182
G01 X1.53632 Y1.61520
G01 X1.53458 Y1.61881
G01 X1.53250 Y1.62223
G01 X1.53007 Y1.62541
G01 X1.52763 Y1.62805
G01 X1.52464 Y1.63071
G01 X1.52139 Y1.63305
G01 X1.51793 Y1.63505
G01 X1.51465 Y1.63654
G01 X1.51086 Y1.63784
G01 X1.50736 Y1.63868
G01 X1.50340 Y1.63922
G01 X1.49980 Y1.63937
G01 X1.49581 Y1.63915
G01 X1.49185 Y1.63852
G01 X1.48837 Y1.63761
G01 X1.48461 Y1.63624
G01 X1.48136 Y1.63468
G01 X1.47794 Y1.63261
G01 X1.47474 Y1.63020
G01 X1.47209 Y1.62777
G01 X1.46942 Y1.62479
G01 X1.46706 Y1.62156
G01 X1.46504 Y1.61810
G01 X1.46353 Y1.61483
G01 X1.46221 Y1.61106
G01 X1.46136 Y1.60756
G01 X1.46079 Y1.60360
G01 X1.46063 Y1.60000
G04 P0 ( dwell for no time -- G64 should not smooth over this point )
G00 Z0.19685 ( retract )

G00 X1.36066 Y1.30160 ( rapid move to begin. )
G01 F2.36220
( Mill infeed pass 1/1 )
G01 Z-0.02362
G04 P0 ( dwell for no time -- G64 should not smooth over this point )
G01 F4.72441
G01 X1.36066 Y1.30160
G01 X1.36097 Y1.30519
G01 X1.36161 Y1.30873
G01 X1.36257 Y1.31220
G01 X1.36384 Y1.31557
G01 X1.36504 Y1.31811
G01 X1.36663 Y1.32089
G01 X1.36820 Y1.32320
G01 X1.37019 Y1.32571
G01 X1.37209 Y1.32777
G01 X1.37444 Y1.32994
G01 X1.37663 Y1.33169
G01 X1.37928 Y1.33348
G01 X1.38172 Y1.33487
G01 X1.38461 Y1.33624
G01 X1.38760 Y1.33737
G01 X1.39068 Y1.33825
G01 X1.39343 Y1.33882
G01 X1.39660 Y1.33922
G01 X1.39940 Y1.33936
G01 X1.40260 Y1.33928
G01 X1.40539 Y1.33900
G01 X1.40854 Y1.33843
G01 X1.41125 Y1.33773
G01 X1.41428 Y1.33669
G01 X1.41685 Y1.33558
G01 X1.41969 Y1.33410
G01 X1.42206 Y1.33261
G01 X1.42464 Y1.33071
G01 X1.42705 Y1.32861
G01 X1.43083 Y1.32448
G01 X1.43272 Y1.32189
G01 X1.43420 Y1.31951
G01 X1.43567 Y1.31667
G01 X1.43690 Y1.31371
G01 X1.43790 Y1.31067
G01 X1.43864 Y1.30756
G01 X1.43912 Y1.30439
G01 X1.43935 Y1.30120
G01 X1.43932 Y1.29800
G01 X1.43903 Y1.29481
G01 X1.43848 Y1.29166
G01 X1.43755 Y1.28818
G01 X1.43647 Y1.28516
G01 X1.43514 Y1.28225
G01 X1.43358 Y1.27945
G01 X1.43180 Y1.27679
G01 X1.42981 Y1.27429
G01 X1.42762 Y1.27195
G01 X1.42525 Y1.26980
G01 X1.42239 Y1.26762
G01 X1.41969 Y1.26590
G01 X1.41969 Y1.11969
G01 X1.76591 Y1.11969
G01 X1.76867 Y1.12385
G01 X1.77209 Y1.12777
G01 X1.77599 Y1.13120
G01 X1.78031 Y1.13410
G01 X1.78031 Y1.46590
G01 X1.77568 Y1.46904
G01 X1.77354 Y1.47085
G01 X1.77126 Y1.47310
G01 X1.76773 Y1.47744
G01 X1.76621 Y1.47980
G01 X1.76468 Y1.48261
G01 X1.76257 Y1.48779
G01 X1.76122 Y1.49323
G01 X1.76065 Y1.49880
G01 X1.76066 Y1.50160
G01 X1.76092 Y1.50479
G01 X1.76180 Y1.50951
G01 X1.76324 Y1.51409
G01 X1.76523 Y1.51846
G01 X1.76750 Y1.52222
G01 X1.77019 Y1.52571
G01 X1.77354 Y1.52915
G01 X1.77728 Y1.53215
G01 X1.78136 Y1.53468
G01 X1.78572 Y1.53669
G01 X1.79029 Y1.53815
G01 X1.79461 Y1.53900
G01 X1.79940 Y1.53937
G01 X1.80380 Y1.53919
G01 X1.80854 Y1.53843
G01 X1.81315 Y1.53711
G01 X1.81757 Y1.53523
G01 X1.82206 Y1.53261
G01 X1.82616 Y1.52942
G01 X1.82981 Y1.52571
G01 X1.83294 Y1.52156
G01 X1.83550 Y1.51703
G01 X1.83755 Y1.51182
G01 X1.83878 Y1.50677
G01 X1.83934 Y1.50160
G01 X1.83920 Y1.49640
G01 X1.83830 Y1.49088
G01 X1.83676 Y1.48591
G01 X1.83458 Y1.48119
G01 X1.83180 Y1.47679
G01 X1.82819 Y1.47252
G01 X1.82401 Y1.46880
G01 X1.81968 Y1.46590
G01 X1.81968 Y1.13410
G01 X1.82304 Y1.13192
G01 X1.82586 Y1.12968
G01 X1.82847 Y1.12719
G01 X1.83083 Y1.12448
G01 X1.83294 Y1.12156
G01 X1.83477 Y1.11846
G01 X1.83647 Y1.11483
G01 X1.83767 Y1.11144
G01 X1.83856 Y1.10795
G01 X1.83917 Y1.10400
G01 X1.83937 Y1.10040
G01 X1.83924 Y1.09680
G01 X1.83878 Y1.09323
G01 X1.83800 Y1.08971
G01 X1.83676 Y1.08591
G01 X1.83532 Y1.08261
G01 X1.83272 Y1.07811
G01 X1.82928 Y1.07369
G01 X1.82556 Y1.07006
G01 X1.82105 Y1.06673
G01 X1.81612 Y1.06408
G01 X1.81125 Y1.06227
G01 X1.80578 Y1.06106
G01 X1.80020 Y1.06063
G01 X1.79501 Y1.06095
G01 X1.78991 Y1.06194
G01 X1.78498 Y1.06361
G01 X1.78031 Y1.06590
G01 X1.77599 Y1.06880
G01 X1.77209 Y1.07223
G01 X1.76867 Y1.07615
G01 X1.76591 Y1.08031
G01 X1.40000 Y1.08031
G01 X1.39802 Y1.08041
G01 X1.39567 Y1.08079
G01 X1.39339 Y1.08146
G01 X1.39120 Y1.08239
G01 X1.38882 Y1.08380
G01 X1.38695 Y1.08526
G01 X1.38526 Y1.08695
G01 X1.38358 Y1.08915
G01 X1.38239 Y1.09120
G01 X1.38133 Y1.09377
G01 X1.38071 Y1.09606
G01 X1.38035 Y1.09881
G01 X1.38031 Y1.26590
G01 X1.37761 Y1.26762
G01 X1.37474 Y1.26980
G01 X1.37209 Y1.27223
G01 X1.36967 Y1.27490
G01 X1.36750 Y1.27777
G01 X1.36561 Y1.28084
G01 X1.36400 Y1.28406
G01 X1.36269 Y1.28741
G01 X1.36170 Y1.29088
G01 X1.36103 Y1.29442
G01 X1.36068 Y1.29800
G01 X1.36066 Y1.30160
G04 P0 ( dwell for no time -- G64 should not smooth over this point )
G00 Z0.19685 ( retract )

G00 X1.76063 Y1.00000 ( rapid move to begin. )
G01 F2.36220
( Mill infeed pass 1/1 )
G01 Z-0.02362
G04 P0 ( dwell for no time -- G64 should not smooth over this point )
G01 F4.72441
G01 X1.76063 Y1.00000
G01 X1.76083 Y1.00399
G01 X1.76144 Y1.00795
G01 X1.76245 Y1.01182
G01 X1.76384 Y1.01557
G01 X1.76561 Y1.01916
G01 X1.76773 Y1.02255
G01 X1.77019 Y1.02571
G01 X1.77295 Y1.02860
G01 X1.77599 Y1.03120
G01 X1.77928 Y1.03348
G01 X1.78279 Y1.03541
G01 X1.78647 Y1.03697
G01 X1.79029 Y1.03815
G01 X1.79422 Y1.03894
G01 X1.79820 Y1.03933
G01 X1.80220 Y1.03931
G01 X1.80539 Y1.03900
G01 X1.80893 Y1.03834
G01 X1.81239 Y1.03737
G01 X1.81576 Y1.03608
G01 X1.81864 Y1.03468
G01 X1.82173 Y1.03283
G01 X1.82464 Y1.03071
G01 X1.82734 Y1.02833
G01 X1.82955 Y1.02601
G01 X1.83180 Y1.02320
G01 X1.83379 Y1.02020
G01 X1.83550 Y1.01703
G01 X1.83690 Y1.01371
G01 X1.83800 Y1.01029
G01 X1.83878 Y1.00677
G01 X1.83924 Y1.00320
G01 X1.83930 Y0.99760
G01 X1.83856 Y0.99205
G01 X1.83704 Y0.98666
G01 X1.83477 Y0.98154
G01 X1.83204 Y0.97712
G01 X1.82847 Y0.97281
G01 X1.82432 Y0.96904
G01 X1.81968 Y0.96590
G01 X1.81968 Y0.63409
G01 X1.82401 Y0.63120
G01 X1.82791 Y0.62777
G01 X1.83133 Y0.62385
G01 X1.83420 Y0.61951
G01 X1.83631 Y0.61520
G01 X1.83800 Y0.61029
G01 X1.83903 Y0.60519
G01 X1.83937 Y0.60000
G01 X1.83920 Y0.59640
G01 X1.83864 Y0.59244
G01 X1.83779 Y0.58894
G01 X1.83647 Y0.58517
G01 X1.83477 Y0.58154
G01 X1.83272 Y0.57811
G01 X1.83033 Y0.57490
G01 X1.82791 Y0.57223
G01 X1.82526 Y0.56980
G01 X1.82206 Y0.56739
G01 X1.81864 Y0.56532
G01 X1.81502 Y0.56361
G01 X1.81163 Y0.56239
G01 X1.80775 Y0.56140
G01 X1.80380 Y0.56081
G01 X1.79980 Y0.56063
G01 X1.79620 Y0.56081
G01 X1.79264 Y0.56132
G01 X1.78913 Y0.56216
G01 X1.78572 Y0.56331
G01 X1.78243 Y0.56477
G01 X1.77928 Y0.56652
G01 X1.77631 Y0.56855
G01 X1.77354 Y0.57085
G01 X1.77098 Y0.57339
G01 X1.76867 Y0.57615
G01 X1.76663 Y0.57911
G01 X1.76468 Y0.58261
G01 X1.76324 Y0.58591
G01 X1.76210 Y0.58933
G01 X1.76129 Y0.59284
G01 X1.76079 Y0.59640
G01 X1.76068 Y0.60200
G01 X1.76136 Y0.60756
G01 X1.76283 Y0.61296
G01 X1.76504 Y0.61811
G01 X1.76796 Y0.62288
G01 X1.77153 Y0.62719
G01 X1.77568 Y0.63096
G01 X1.78031 Y0.63409
G01 X1.78031 Y0.96590
G01 X1.77599 Y0.96880
G01 X1.77209 Y0.97223
G01 X1.76867 Y0.97615
G01 X1.76580 Y0.98049
G01 X1.76368 Y0.98479
G01 X1.76200 Y0.98971
G01 X1.76097 Y0.99481
G01 X1.76063 Y1.00000

G04 P0 ( dwell for no time -- G64 should not smooth over this point )
G00 Z0.196850 ( retract )

M5 ( Spindle off. )
G04 P1.000000
M9 ( Coolant off. )
M2 ( Program end. )


G00 Z0.19685
G00 X0 Y0
M5
M30
